(Projekt Vers_1_trans)
(Erstellt mit Estlcam Version 10 Build 11,009)
(Laufzeit ca. 00:20:46 Stunden)

(Benoetigte Werkzeuge:)
(Fraeser 2mm)
G21
G90
G94
M03 S24000
G00 Z1.0000


(Nr. 1: Ausschnitt 2)
G00 X-4.4533 Y-42.7857
G00 Z0.5000
G01 Z-1.0000 F600 S24000
G01 X4.2299 F1200
G01 X4.0747 Y-40.9857
G01 X-4.2995
G01 X-4.1448 Y-39.1857
G01 X3.9205
G01 X3.7703 Y-37.3857
G01 X-3.9863
G01 X-3.8316 Y-35.5857
G01 X3.6201
G01 X3.4690 Y-33.7857
G01 X-3.6773
G01 X-3.5232 Y-31.9857
G01 X3.3172
G01 X3.1651 Y-30.1857
G01 X-3.3708
G01 X-3.2191 Y-28.3857
G01 X3.0104
G01 X2.8552 Y-26.5857
G01 X-3.0687
G01 X-2.9175 Y-24.7857
G01 X2.7000
G01 X2.5471 Y-22.9857
G01 X-2.7588
G01 X-2.6056 Y-21.1857
G01 X2.3912
G01 X2.2372 Y-19.3857
G01 X-2.4551
G01 X-2.3027 Y-17.5857
G01 X2.0815
G01 X1.9284 Y-15.7857
G01 X-2.1471
G01 X-1.9928 Y-13.9857
G01 X1.7760
G01 X1.6236 Y-12.1857
G01 X-1.8361
G01 X-1.6820 Y-10.3857
G01 X1.4711
G01 X1.3195 Y-8.5857
G01 X-1.5306
G01 X-1.3653 Y-6.7857
G01 X1.1853
G01 X2.4881 Y-4.9857
G01 X-2.7046
G01 Y-3.1857
G01 X-4.7213
G01 X4.5097
G01 X5.3114 Y-1.3857
G01 X-5.5266
G01 X-5.6392 Y0.4143
G01 X5.4550
G01 X5.0139 Y2.2143
G01 X-5.2203
G01 X-3.9709 Y4.0143
G01 X3.7421
G00 Z1.0000
G00 Z0.5000
G01 Z-1.0000 F600
G01 X3.8833 Y4.1560 F1200
G02 X4.7853 Y3.0684 I-5.0554 J-5.1107
G02 X2.0665 Y-5.4202 I-4.9369 J-3.0985
G03 X1.3842 Y-6.3914 I0.4200 J-1.0203
G01 X1.3808 Y-6.4739
G01 X1.3803 Y-6.5964
G01 X1.3848 Y-6.7779
G01 X1.3933 Y-6.9575
G03 X3.3794 Y-30.3435 I6750.7124 J561.5373
G03 X4.5783 Y-44.4985 I3048.5518 J251.0926
G02 X-4.5826 Y-44.5252 I-6.6877 J721.7322
G01 X-4.7932 Y-44.5159
G01 X-4.7078 Y-43.4354
G03 X-3.0778 Y-24.3135 I-5562.1031 J483.7721
G02 X-1.9546 Y-11.2408 I8035.9568 J-683.8553
G02 X-1.5655 Y-6.7818 I226.4790 J-17.5144
G03 X-2.2307 Y-5.4615 I-1.1966 J0.2249
G01 X-2.3177 Y-5.4107
G02 X-5.6635 Y-1.6774 I2.3987 J5.5157
G02 X-5.8312 Y-0.4317 I5.5013 J1.3749
G01 X-5.8413 Y-0.1136
G01 X-5.8436 Y0.0472
G01 X-5.8437 Y0.1991
G02 X-5.8212 Y0.7387 I6.9016 J-0.0186
G01 X-5.8100 Y0.8549
G02 X0.9391 Y5.6667 I5.6906 J-0.8426
G01 X1.1056 Y5.6413
G02 X3.8833 Y4.1560 I-1.2075 J-5.5981
G01 X3.7421 Y4.0143
G00 Z1.0000
G00 X4.2299 Y-42.7857
G00 Z-0.5000
G01 Z-2.0000 F600
G01 X-4.4533 F1200
G01 X-4.2995 Y-40.9857
G01 X4.0747
G01 X3.9205 Y-39.1857
G01 X-4.1448
G01 X-3.9863 Y-37.3857
G01 X3.7703
G01 X3.6201 Y-35.5857
G01 X-3.8316
G01 X-3.6773 Y-33.7857
G01 X3.4690
G01 X3.3172 Y-31.9857
G01 X-3.5232
G01 X-3.3708 Y-30.1857
G01 X3.1651
G01 X3.0104 Y-28.3857
G01 X-3.2191
G01 X-3.0687 Y-26.5857
G01 X2.8552
G01 X2.7000 Y-24.7857
G01 X-2.9175
G01 X-2.7588 Y-22.9857
G01 X2.5471
G01 X2.3912 Y-21.1857
G01 X-2.6056
G01 X-2.4551 Y-19.3857
G01 X2.2372
G01 X2.0815 Y-17.5857
G01 X-2.3027
G01 X-2.1471 Y-15.7857
G01 X1.9284
G01 X1.7760 Y-13.9857
G01 X-1.9928
G01 X-1.8361 Y-12.1857
G01 X1.6236
G01 X1.4711 Y-10.3857
G01 X-1.6820
G01 X-1.5306 Y-8.5857
G01 X1.3195
G01 X1.1853 Y-6.7857
G01 X-1.3653
G01 X-2.7046 Y-4.9857
G01 X2.4881
G01 Y-3.1857
G01 X4.5097
G01 X-4.7213
G01 X-5.5266 Y-1.3857
G01 X5.3114
G01 X5.4550 Y0.4143
G01 X-5.6392
G01 X-5.2203 Y2.2143
G01 X5.0139
G01 X3.7421 Y4.0143
G01 X-3.9709
G00 Z1.0000
G00 Z-0.5000
G01 Z-2.0000 F600
G01 X-4.1126 Y4.1554 F1200
G02 X-0.1207 Y5.7568 I3.9906 J-4.1713
G02 X4.7853 Y3.0684 I0.0288 J-5.7680
G02 X2.0665 Y-5.4202 I-4.9369 J-3.0985
G03 X1.3842 Y-6.3914 I0.4200 J-1.0203
G01 X1.3808 Y-6.4739
G01 X1.3803 Y-6.5964
G01 X1.3848 Y-6.7779
G01 X1.3933 Y-6.9575
G03 X3.3794 Y-30.3435 I6750.7124 J561.5373
G03 X4.5783 Y-44.4985 I3048.5518 J251.0926
G02 X-4.5826 Y-44.5252 I-6.6877 J721.7322
G01 X-4.7932 Y-44.5159
G01 X-4.7078 Y-43.4354
G03 X-3.0778 Y-24.3135 I-5562.1031 J483.7721
G02 X-1.9546 Y-11.2408 I8035.9568 J-683.8553
G02 X-1.5655 Y-6.7818 I226.4790 J-17.5144
G03 X-2.2307 Y-5.4615 I-1.1966 J0.2249
G01 X-2.3177 Y-5.4107
G02 X-5.6635 Y-1.6774 I2.3987 J5.5157
G02 X-5.8312 Y-0.4317 I5.5013 J1.3749
G01 X-5.8413 Y-0.1136
G01 X-5.8436 Y0.0472
G01 X-5.8437 Y0.1991
G01 X-5.8417 Y0.3427
G01 X-5.8373 Y0.4786
G02 X-4.1126 Y4.1554 I5.4224 J-0.3006
G01 X-3.9709 Y4.0143
G00 Z1.0000


(Nr. 2: Ausschnitt 5)
G00 X-11.4510 Y-7.7470 Z1.0000
G00 Z0.5000
G01 Z-1.0000 F600
G01 X-11.6162 Y-7.6017 F1200
G02 X-15.4227 Y-1.6014 I7.4686 J8.9454
G02 X-15.7045 Y0.6510 I9.5973 J2.3448
G01 X-15.6983 Y1.1079
G02 X-15.2432 Y3.8367 I12.1546 J-0.6246
G02 X-12.7734 Y8.0184 I11.2445 J-3.8212
G02 X-11.8663 Y8.8938 I7.6432 J-7.0116
G01 X-11.6180 Y8.5917
G01 X-11.6176 Y8.5806
G03 X-15.0592 Y1.3589 I7.7123 J-8.1062
G01 X-15.0629 Y1.3001
G01 X-15.0763 Y0.9189
G01 X-15.0749 Y0.5375
G03 X-11.9722 Y-6.6765 I10.7508 J0.3496
G03 X-10.3458 Y-8.1899 I13.6721 J13.0622
G01 X-10.4162 Y-8.2718
G01 X-10.5666 Y-8.4415
G02 X-11.4510 Y-7.7470 I4.4418 J6.5666
G01 Z-2.0000 F600
G01 X-11.6162 Y-7.6017 F1200
G02 X-15.4227 Y-1.6014 I7.4686 J8.9454
G02 X-15.7045 Y0.6510 I9.5973 J2.3448
G01 X-15.6983 Y1.1079
G02 X-15.2432 Y3.8367 I12.1546 J-0.6246
G02 X-12.7734 Y8.0184 I11.2445 J-3.8212
G02 X-11.8663 Y8.8938 I7.6432 J-7.0116
G01 X-11.6180 Y8.5917
G01 X-11.6176 Y8.5806
G03 X-15.0592 Y1.3589 I7.7123 J-8.1062
G01 X-15.0629 Y1.3001
G01 X-15.0763 Y0.9189
G01 X-15.0749 Y0.5375
G03 X-11.9722 Y-6.6765 I10.7508 J0.3496
G03 X-10.3458 Y-8.1899 I13.6721 J13.0622
G01 X-10.4162 Y-8.2718
G01 X-10.5666 Y-8.4415
G02 X-11.4510 Y-7.7470 I4.4418 J6.5666
G01 Z-3.0000 F600
G01 X-11.6162 Y-7.6017 F1200
G02 X-15.4227 Y-1.6014 I7.4686 J8.9454
G02 X-15.7045 Y0.6510 I9.5973 J2.3448
G01 X-15.6983 Y1.1079
G02 X-15.2432 Y3.8367 I12.1546 J-0.6246
G02 X-12.7734 Y8.0184 I11.2445 J-3.8212
G02 X-11.8663 Y8.8938 I7.6432 J-7.0116
G01 X-11.6180 Y8.5917
G01 X-11.6176 Y8.5806
G03 X-15.0592 Y1.3589 I7.7123 J-8.1062
G01 X-15.0629 Y1.3001
G01 X-15.0763 Y0.9189
G01 X-15.0749 Y0.5375
G03 X-11.9722 Y-6.6765 I10.7508 J0.3496
G03 X-10.3458 Y-8.1899 I13.6721 J13.0622
G01 X-10.4162 Y-8.2718
G01 X-10.5666 Y-8.4415
G02 X-11.4510 Y-7.7470 I4.4418 J6.5666
G00 Z1.0000


(Nr. 3: Ausschnitt 7)
G00 X10.3809 Y-8.4443 Z1.0000
G00 Z0.5000
G01 Z-1.0000 F600
G01 X10.3596 Y-8.4435 F1200
G01 X10.1466 Y-8.1931
G03 X12.7073 Y-5.5651 I-11.5240 J13.7905
G03 X13.4867 Y-4.3505 I-7.3338 J5.5639
G03 X13.1191 Y6.4989 I-8.9352 J5.1282
G03 X11.4020 Y8.5854 I-10.4332 J-6.8363
G01 X11.6511 Y8.8901
G02 X14.8633 Y4.2782 I-7.6781 J-8.7724
G02 X13.2936 Y-5.5935 I-9.7167 J-3.5156
G02 X10.3809 Y-8.4443 I-12.0493 J9.3977
G01 Z-2.0000 F600
G01 X10.3596 Y-8.4435 F1200
G01 X10.1466 Y-8.1931
G03 X12.7073 Y-5.5651 I-11.5240 J13.7905
G03 X13.4867 Y-4.3505 I-7.3338 J5.5639
G03 X13.1191 Y6.4989 I-8.9352 J5.1282
G03 X11.4020 Y8.5854 I-10.4332 J-6.8363
G01 X11.6511 Y8.8901
G02 X14.8633 Y4.2782 I-7.6781 J-8.7724
G02 X13.2936 Y-5.5935 I-9.7167 J-3.5156
G02 X10.3809 Y-8.4443 I-12.0493 J9.3977
G01 Z-3.0000 F600
G01 X10.3596 Y-8.4435 F1200
G01 X10.1466 Y-8.1931
G03 X12.7073 Y-5.5651 I-11.5240 J13.7905
G03 X13.4867 Y-4.3505 I-7.3338 J5.5639
G03 X13.1191 Y6.4989 I-8.9352 J5.1282
G03 X11.4020 Y8.5854 I-10.4332 J-6.8363
G01 X11.6511 Y8.8901
G02 X14.8633 Y4.2782 I-7.6781 J-8.7724
G02 X13.2936 Y-5.5935 I-9.7167 J-3.5156
G02 X10.3809 Y-8.4443 I-12.0493 J9.3977
G00 Z1.0000


(Nr. 4: Ausschnitt 21)
G00 X-16.4400 Y-14.9121 Z1.0000
G00 Z0.5000
G01 Z-1.0000 F600
G01 X-17.8359 F1200
G01 X-17.8217 Y-13.1121
G01 X-20.0429
G01 X-19.7053 Y-11.3121
G01 X-21.8001
G01 X-21.1936 Y-9.5121
G01 X-23.2335
G01 X-22.3699 Y-7.7121
G01 X-24.3646
G01 X-25.2333 Y-5.9121
G01 X-23.2846
G01 X-23.9498 Y-4.1121
G01 X-25.8667
G01 X-26.2888 Y-2.3121
G01 X-24.3984
G01 X-24.6492 Y-0.5121
G01 X-26.5192
G01 X-26.5329 Y1.2879
G01 X-24.6887
G01 X-24.5127 Y3.0879
G01 X-26.4227
G01 X-26.0798 Y4.8879
G01 X-24.1533
G01 X-23.5846 Y6.6879
G01 X-25.5218
G01 X-24.7428 Y8.4879
G01 X-22.7825
G01 X-23.7292 Y10.2879
G01 X-21.7226
G01 X-22.4568 Y12.0879
G01 X-20.3722
G01 X-20.8438 Y13.8879
G01 X-18.6570
G01 X-18.8254 Y15.6879
G01 X-17.5886
G00 Z1.0000
G00 Z0.5000
G01 Z-1.0000 F600
G01 X-17.4329 Y15.8135 F1200
G01 X-17.3156 Y15.6679
G01 X-16.8946 Y15.1401
G03 X-20.9145 Y11.0891 I13.5964 J-17.5121
G03 X-24.5002 Y0.6956 I13.6856 J-10.5366
G03 X-21.0769 Y-9.3338 I17.1076 J0.2402
G03 X-15.7556 Y-14.4326 I17.5211 J12.9596
G01 X-16.6594 Y-15.4674
G01 X-16.9274 Y-15.7669
G02 X-24.0988 Y-8.5682 I12.6062 J19.7297
G02 X-26.7320 Y-0.1549 I14.8412 J9.2638
G01 X-26.7387 Y0.2683
G01 X-26.7398 Y0.4962
G01 X-26.7379 Y0.9692
G02 X-26.6807 Y2.6507 I25.2685 J-0.0173
G02 X-26.0014 Y5.9135 I19.4765 J-2.3529
G02 X-19.3992 Y15.4712 I19.6076 J-6.4851
G02 X-18.0345 Y16.5453 I12.0728 J-13.9359
G02 X-17.4329 Y15.8135 I-26.6021 J-22.4832
G01 X-17.5886 Y15.6879
G00 Z1.0000
G00 X-17.8359 Y-14.9121
G00 Z-0.5000
G01 Z-2.0000 F600
G01 X-16.4400 F1200
G01 X-17.8217 Y-13.1121
G01 X-20.0429
G01 X-19.7053 Y-11.3121
G01 X-21.8001
G01 X-21.1936 Y-9.5121
G01 X-23.2335
G01 X-22.3699 Y-7.7121
G01 X-24.3646
G01 X-25.2333 Y-5.9121
G01 X-23.2846
G01 X-23.9498 Y-4.1121
G01 X-25.8667
G01 X-26.2888 Y-2.3121
G01 X-24.3984
G01 X-24.6492 Y-0.5121
G01 X-26.5192
G01 X-26.5329 Y1.2879
G01 X-24.6887
G01 X-24.5127 Y3.0879
G01 X-26.4227
G01 X-26.0798 Y4.8879
G01 X-24.1533
G01 X-23.5846 Y6.6879
G01 X-25.5218
G01 X-24.7428 Y8.4879
G01 X-22.7825
G01 X-23.7292 Y10.2879
G01 X-21.7226
G01 X-22.4568 Y12.0879
G01 X-20.3722
G01 X-20.8438 Y13.8879
G01 X-18.6570
G01 X-18.8254 Y15.6879
G01 X-17.5886
G00 Z1.0000
G00 Z-0.5000
G01 Z-2.0000 F600
G01 X-17.4329 Y15.8135 F1200
G01 X-17.3156 Y15.6679
G01 X-16.8946 Y15.1401
G03 X-20.9145 Y11.0891 I13.5964 J-17.5121
G03 X-24.5002 Y0.6956 I13.6856 J-10.5366
G03 X-21.0769 Y-9.3338 I17.1076 J0.2402
G03 X-15.7556 Y-14.4326 I17.5211 J12.9596
G01 X-16.6594 Y-15.4674
G01 X-16.9274 Y-15.7669
G02 X-24.0988 Y-8.5682 I12.6062 J19.7297
G02 X-26.7320 Y-0.1549 I14.8412 J9.2638
G01 X-26.7387 Y0.2683
G01 X-26.7398 Y0.4962
G01 X-26.7379 Y0.9692
G02 X-26.6807 Y2.6507 I25.2685 J-0.0173
G02 X-26.0014 Y5.9135 I19.4765 J-2.3529
G02 X-19.3992 Y15.4712 I19.6076 J-6.4851
G02 X-18.0345 Y16.5453 I12.0728 J-13.9359
G02 X-17.4329 Y15.8135 I-26.6021 J-22.4832
G01 X-17.5886 Y15.6879
G00 Z1.0000
G00 X-17.8359 Y-14.9121
G00 Z-1.5000
G01 Z-3.0000 F600
G01 X-16.4400 F1200
G01 X-17.8217 Y-13.1121
G01 X-20.0429
G01 X-19.7053 Y-11.3121
G01 X-21.8001
G01 X-21.1936 Y-9.5121
G01 X-23.2335
G01 X-22.3699 Y-7.7121
G01 X-24.3646
G01 X-25.2333 Y-5.9121
G01 X-23.2846
G01 X-23.9498 Y-4.1121
G01 X-25.8667
G01 X-26.2888 Y-2.3121
G01 X-24.3984
G01 X-24.6492 Y-0.5121
G01 X-26.5192
G01 X-26.5329 Y1.2879
G01 X-24.6887
G01 X-24.5127 Y3.0879
G01 X-26.4227
G01 X-26.0798 Y4.8879
G01 X-24.1533
G01 X-23.5846 Y6.6879
G01 X-25.5218
G01 X-24.7428 Y8.4879
G01 X-22.7825
G01 X-23.7292 Y10.2879
G01 X-21.7226
G01 X-22.4568 Y12.0879
G01 X-20.3722
G01 X-20.8438 Y13.8879
G01 X-18.6570
G01 X-18.8254 Y15.6879
G01 X-17.5886
G00 Z1.0000
G00 Z-1.5000
G01 Z-3.0000 F600
G01 X-17.4329 Y15.8135 F1200
G01 X-17.3156 Y15.6679
G01 X-16.8946 Y15.1401
G03 X-20.9145 Y11.0891 I13.5964 J-17.5121
G03 X-24.5002 Y0.6956 I13.6856 J-10.5366
G03 X-21.0769 Y-9.3338 I17.1076 J0.2402
G03 X-15.7556 Y-14.4326 I17.5211 J12.9596
G01 X-16.6594 Y-15.4674
G01 X-16.9274 Y-15.7669
G02 X-24.0988 Y-8.5682 I12.6062 J19.7297
G02 X-26.7320 Y-0.1549 I14.8412 J9.2638
G01 X-26.7387 Y0.2683
G01 X-26.7398 Y0.4962
G01 X-26.7379 Y0.9692
G02 X-26.6807 Y2.6507 I25.2685 J-0.0173
G02 X-26.0014 Y5.9135 I19.4765 J-2.3529
G02 X-19.3992 Y15.4712 I19.6076 J-6.4851
G02 X-18.0345 Y16.5453 I12.0728 J-13.9359
G02 X-17.4329 Y15.8135 I-26.6021 J-22.4832
G01 X-17.5886 Y15.6879
G00 Z1.0000


(Nr. 5: Ausschnitt 9)
G00 X16.2138 Y-14.9032 Z1.0000
G00 Z0.5000
G01 Z-1.0000 F600
G01 X17.6245 F1200
G01 X17.6163 Y-13.1032
G01 X19.8467
G01 X19.5021 Y-11.3032
G01 X21.5910
G01 X20.9882 Y-9.5032
G01 X23.0248
G01 X22.1559 Y-7.7032
G01 X24.1428
G01 X25.0083 Y-5.9032
G01 X23.0620
G01 X23.7288 Y-4.1032
G01 X25.6569
G01 X26.0827 Y-2.3032
G01 X24.1765
G01 X24.4200 Y-0.5032
G01 X26.3169
G01 X26.3687 Y1.2968
G01 X24.4389
G01 X24.3008 Y3.0968
G01 X26.2009
G01 X25.8458 Y4.8968
G01 X23.9282
G01 X23.3646 Y6.6968
G01 X25.3017
G01 X24.5416 Y8.4968
G01 X22.5635
G01 X23.5253 Y10.2968
G01 X21.4931
G01 X22.2216 Y12.0968
G01 X20.1482
G01 X20.5813 Y13.8968
G01 X18.4265
G01 X18.5859 Y15.6968
G01 X17.3833
G00 Z1.0000
G00 Z0.5000
G01 Z-1.0000 F600
G01 X17.2285 Y15.8243 F1200
G02 X17.8311 Y16.5415 I14.3592 J-11.4545
G02 X23.1520 Y11.2012 I-15.0738 J-20.3399
G02 X26.5038 Y2.2794 I-14.7914 J-10.6475
G02 X24.2790 Y-7.8721 I-17.4979 J-1.4847
G01 X24.0768 Y-8.2304
G01 X23.8680 Y-8.5825
G02 X16.7087 Y-15.7700 I-19.6911 J12.4545
G02 X15.5524 Y-14.4246 I24.5776 J22.2903
G03 X20.0916 Y-10.3300 I-12.4132 J18.3240
G03 X24.1723 Y-1.1483 I-13.5777 J11.5321
G03 X24.1578 Y2.7224 I-23.0777 J1.8492
G03 X22.8264 Y7.4873 I-17.7324 J-2.3862
G03 X16.9478 Y14.9256 I-18.5178 J-8.5929
G01 X16.6823 Y15.1355
G02 X17.2285 Y15.8243 I17.8826 J-13.6176
G01 X17.3833 Y15.6968
G00 Z1.0000
G00 X17.6245 Y-14.9032
G00 Z-0.5000
G01 Z-2.0000 F600
G01 X16.2138 F1200
G01 X17.6163 Y-13.1032
G01 X19.8467
G01 X19.5021 Y-11.3032
G01 X21.5910
G01 X20.9882 Y-9.5032
G01 X23.0248
G01 X22.1559 Y-7.7032
G01 X24.1428
G01 X25.0083 Y-5.9032
G01 X23.0620
G01 X23.7288 Y-4.1032
G01 X25.6569
G01 X26.0827 Y-2.3032
G01 X24.1765
G01 X24.4200 Y-0.5032
G01 X26.3169
G01 X26.3687 Y1.2968
G01 X24.4389
G01 X24.3008 Y3.0968
G01 X26.2009
G01 X25.8458 Y4.8968
G01 X23.9282
G01 X23.3646 Y6.6968
G01 X25.3017
G01 X24.5416 Y8.4968
G01 X22.5635
G01 X23.5253 Y10.2968
G01 X21.4931
G01 X22.2216 Y12.0968
G01 X20.1482
G01 X20.5813 Y13.8968
G01 X18.4265
G01 X18.5859 Y15.6968
G01 X17.3833
G00 Z1.0000
G00 Z-0.5000
G01 Z-2.0000 F600
G01 X17.2285 Y15.8243 F1200
G02 X17.8311 Y16.5415 I14.3592 J-11.4545
G02 X23.1520 Y11.2012 I-15.0738 J-20.3399
G02 X26.5038 Y2.2794 I-14.7914 J-10.6475
G02 X24.2790 Y-7.8721 I-17.4979 J-1.4847
G01 X24.0768 Y-8.2304
G01 X23.8680 Y-8.5825
G02 X16.7087 Y-15.7700 I-19.6911 J12.4545
G02 X15.5524 Y-14.4246 I24.5776 J22.2903
G03 X20.0916 Y-10.3300 I-12.4132 J18.3240
G03 X24.1723 Y-1.1483 I-13.5777 J11.5321
G03 X24.1578 Y2.7224 I-23.0777 J1.8492
G03 X22.8264 Y7.4873 I-17.7324 J-2.3862
G03 X16.9478 Y14.9256 I-18.5178 J-8.5929
G01 X16.6823 Y15.1355
G02 X17.2285 Y15.8243 I17.8826 J-13.6176
G01 X17.3833 Y15.6968
G00 Z1.0000
G00 X17.6245 Y-14.9032
G00 Z-1.5000
G01 Z-3.0000 F600
G01 X16.2138 F1200
G01 X17.6163 Y-13.1032
G01 X19.8467
G01 X19.5021 Y-11.3032
G01 X21.5910
G01 X20.9882 Y-9.5032
G01 X23.0248
G01 X22.1559 Y-7.7032
G01 X24.1428
G01 X25.0083 Y-5.9032
G01 X23.0620
G01 X23.7288 Y-4.1032
G01 X25.6569
G01 X26.0827 Y-2.3032
G01 X24.1765
G01 X24.4200 Y-0.5032
G01 X26.3169
G01 X26.3687 Y1.2968
G01 X24.4389
G01 X24.3008 Y3.0968
G01 X26.2009
G01 X25.8458 Y4.8968
G01 X23.9282
G01 X23.3646 Y6.6968
G01 X25.3017
G01 X24.5416 Y8.4968
G01 X22.5635
G01 X23.5253 Y10.2968
G01 X21.4931
G01 X22.2216 Y12.0968
G01 X20.1482
G01 X20.5813 Y13.8968
G01 X18.4265
G01 X18.5859 Y15.6968
G01 X17.3833
G00 Z1.0000
G00 Z-1.5000
G01 Z-3.0000 F600
G01 X17.2285 Y15.8243 F1200
G02 X17.8311 Y16.5415 I14.3592 J-11.4545
G02 X23.1520 Y11.2012 I-15.0738 J-20.3399
G02 X26.5038 Y2.2794 I-14.7914 J-10.6475
G02 X24.2790 Y-7.8721 I-17.4979 J-1.4847
G01 X24.0768 Y-8.2304
G01 X23.8680 Y-8.5825
G02 X16.7087 Y-15.7700 I-19.6911 J12.4545
G02 X15.5524 Y-14.4246 I24.5776 J22.2903
G03 X20.0916 Y-10.3300 I-12.4132 J18.3240
G03 X24.1723 Y-1.1483 I-13.5777 J11.5321
G03 X24.1578 Y2.7224 I-23.0777 J1.8492
G03 X22.8264 Y7.4873 I-17.7324 J-2.3862
G03 X16.9478 Y14.9256 I-18.5178 J-8.5929
G01 X16.6823 Y15.1355
G02 X17.2285 Y15.8243 I17.8826 J-13.6176
G01 X17.3833 Y15.6968
G00 Z1.0000


(Nr. 6: Ausschnitt 20)
G00 X-24.0971 Y-23.4603 Z1.0000
G00 Z0.5000
G01 Z-1.0000 F600
G01 X-29.1295 F1200
G01 Y-21.6603
G01 X-31.3171
G01 X-26.4081
G01 X-28.5130
G01 Y-19.8603
G01 X-33.1958
G01 X-34.8480 Y-18.0603
G01 X-30.3162
G01 X-31.9642 Y-16.2603
G01 X-36.2806
G01 X-36.1785 Y-14.4603
G01 X-33.3202
G00 Z1.0000
G00 Z0.5000
G01 Z-1.0000 F600
G01 X-33.1544 Y-14.3479 F1200
G03 X-29.9354 Y-18.1615 I20.3209 J13.8873
G03 X-27.8113 Y-20.2498 I43.3889 J42.0080
G03 X-23.7207 Y-23.3340 I25.9867 J30.2116
G03 X-25.9382 Y-25.8828 I264.9094 J-232.7088
G03 X-28.0934 Y-24.4864 I-700.0480 J-1078.1321
G02 X-29.3269 Y-23.5564 I35.9719 J48.9907
G02 X-36.3128 Y-16.5639 I22.8271 J29.7916
G02 X-37.1737 Y-15.3288 I7.3525 J6.0426
G01 X-37.2316 Y-15.2486
G01 X-37.2379 Y-15.2369
G01 X-34.4010 Y-12.3999
G01 X-34.4419 Y-12.4407
G01 X-34.3985 Y-12.4035
G03 X-33.1544 Y-14.3479 I26.5093 J15.5914
G01 X-33.3202 Y-14.4603
G00 Z1.0000
G00 X-29.1295 Y-23.4603
G00 Z-0.5000
G01 Z-2.0000 F600
G01 X-24.0971 F1200
G01 X-26.4081
G01 Y-21.6603
G01 X-31.3171
G01 X-33.1958 Y-19.8603
G01 X-28.5130
G01 X-30.3162 Y-18.0603
G01 X-34.8480
G01 X-36.2806 Y-16.2603
G01 X-31.9642
G01 X-33.3202 Y-14.4603
G01 X-36.1785
G00 Z1.0000
G00 Z-0.5000
G01 Z-2.0000 F600
G01 X-36.3199 Y-14.3189 F1200
G01 X-34.4010 Y-12.3999
G01 X-34.4419 Y-12.4407
G01 X-34.3985 Y-12.4035
G03 X-31.2792 Y-16.7567 I23.2679 J13.3787
G03 X-27.8113 Y-20.2498 I61.9828 J58.0670
G03 X-23.7207 Y-23.3340 I25.9867 J30.2116
G03 X-25.9382 Y-25.8828 I264.9094 J-232.7088
G03 X-28.0934 Y-24.4864 I-700.0480 J-1078.1321
G02 X-29.3269 Y-23.5564 I35.9719 J48.9907
G02 X-36.3128 Y-16.5639 I22.8271 J29.7916
G02 X-37.1737 Y-15.3288 I7.3525 J6.0426
G01 X-37.2316 Y-15.2486
G01 X-37.2379 Y-15.2369
G01 X-36.3199 Y-14.3189
G01 X-36.1785 Y-14.4603
G00 Z1.0000
G00 X-29.1295 Y-23.4603
G00 Z-1.5000
G01 Z-3.0000 F600
G01 X-24.0971 F1200
G01 X-26.4081
G01 Y-21.6603
G01 X-31.3171
G01 X-33.1958 Y-19.8603
G01 X-28.5130
G01 X-30.3162 Y-18.0603
G01 X-34.8480
G01 X-36.2806 Y-16.2603
G01 X-31.9642
G01 X-33.3202 Y-14.4603
G01 X-36.1785
G00 Z1.0000
G00 Z-1.5000
G01 Z-3.0000 F600
G01 X-36.3199 Y-14.3189 F1200
G01 X-34.4010 Y-12.3999
G01 X-34.4419 Y-12.4407
G01 X-34.3985 Y-12.4035
G03 X-31.2792 Y-16.7567 I23.2679 J13.3787
G03 X-27.8113 Y-20.2498 I61.9828 J58.0670
G03 X-23.7207 Y-23.3340 I25.9867 J30.2116
G03 X-25.9382 Y-25.8828 I264.9094 J-232.7088
G03 X-28.0934 Y-24.4864 I-700.0480 J-1078.1321
G02 X-29.3269 Y-23.5564 I35.9719 J48.9907
G02 X-36.3128 Y-16.5639 I22.8271 J29.7916
G02 X-37.1737 Y-15.3288 I7.3525 J6.0426
G01 X-37.2316 Y-15.2486
G01 X-37.2379 Y-15.2369
G01 X-36.3199 Y-14.3189
G01 X-36.1785 Y-14.4603
G00 Z1.0000


(Nr. 7: Ausschnitt 19)
G00 X-38.1288 Y2.8059 Z1.0000
G00 Z0.5000
G01 Z-1.0000 F600
G01 X-42.0091 F1200
G01 X-41.8193 Y4.6059
G01 X-37.9520
G01 X-37.6064 Y6.4059
G01 X-41.5043
G01 X-41.0577 Y8.2059
G01 X-37.1418
G01 X-36.5142 Y10.0059
G01 X-40.4652
G01 X-39.7657 Y11.8059
G01 X-35.7351
G01 X-34.8175 Y13.6059
G01 X-38.9071
G01 X-37.8790 Y15.4059
G01 X-33.7130
G01 X-32.4281 Y17.2059
G01 X-36.6925
G01 X-35.3297 Y19.0059
G01 X-30.9252
G01 X-29.1722 Y20.8059
G01 X-33.7242
G01 X-31.9232 Y22.6059
G01 X-27.1311
G01 Y24.4059
G01 X-24.8600
G01 X-29.8556
G01 X-27.4358
G01 Y26.2059
G01 X-26.3019
G00 Z1.0000
G00 Z0.5000
G01 Z-1.0000 F600
G01 X-26.1458 Y26.3307 F1200
G01 X-25.0913 Y25.0124
G01 X-24.5323 Y24.3191
G01 X-24.5384 Y24.2980
G03 X-31.7872 Y17.6936 I19.4682 J-28.6480
G03 X-36.7861 Y8.6245 I21.8385 J-17.9496
G03 X-37.0062 Y7.9132 I6.5080 J-2.4038
G03 X-37.9578 Y1.7686 I20.3449 J-6.2968
G01 X-37.9631 Y1.1179
G01 X-37.9635 Y0.4723
G01 X-37.9574 Y-0.2462
G01 X-37.9691 Y-0.2436
G01 X-39.0322 Y0.8204
G03 X-39.7537 Y1.1277 I-0.7218 J-0.6939
G02 X-42.3068 Y1.1325 I-1.2582 J9.7245
G01 X-42.2754 Y1.7706
G02 X-41.4345 Y7.6391 I29.7638 J-1.2705
G03 X-41.3154 Y7.9181 I-1.4004 J0.7627
G02 X-40.9369 Y9.2105 I5.9900 J-1.0524
G01 X-40.9139 Y9.3056
G01 X-40.8961 Y9.4015
G03 X-40.3303 Y10.9594 I-205.8998 J75.6729
G02 X-33.7070 Y21.1155 I28.9034 J-11.6113
G02 X-27.7652 Y26.2176 I26.3877 J-24.7201
G02 X-26.6756 Y26.9698 I21.9403 J-30.6136
G01 X-26.6527 Y26.9645
G01 X-26.1458 Y26.3307
G01 X-26.3019 Y26.2059
G00 Z1.0000
G00 X-38.1288 Y2.8059
G00 Z-0.5000
G01 Z-2.0000 F600
G01 X-42.0091 F1200
G01 X-41.8193 Y4.6059
G01 X-37.9520
G01 X-37.6064 Y6.4059
G01 X-41.5043
G01 X-41.0577 Y8.2059
G01 X-37.1418
G01 X-36.5142 Y10.0059
G01 X-40.4652
G01 X-39.7657 Y11.8059
G01 X-35.7351
G01 X-34.8175 Y13.6059
G01 X-38.9071
G01 X-37.8790 Y15.4059
G01 X-33.7130
G01 X-32.4281 Y17.2059
G01 X-36.6925
G01 X-35.3297 Y19.0059
G01 X-30.9252
G01 X-29.1722 Y20.8059
G01 X-33.7242
G01 X-31.9232 Y22.6059
G01 X-27.1311
G01 Y24.4059
G01 X-24.8600
G01 X-29.8556
G01 X-27.4358
G01 Y26.2059
G01 X-26.3019
G00 Z1.0000
G00 Z-0.5000
G01 Z-2.0000 F600
G01 X-26.1458 Y26.3307 F1200
G01 X-25.0913 Y25.0124
G01 X-24.5323 Y24.3191
G01 X-24.5384 Y24.2980
G03 X-31.7872 Y17.6936 I19.4682 J-28.6480
G03 X-36.7861 Y8.6245 I21.8385 J-17.9496
G03 X-37.0062 Y7.9132 I6.5080 J-2.4038
G03 X-37.9578 Y1.7686 I20.3449 J-6.2968
G01 X-37.9631 Y1.1179
G01 X-37.9635 Y0.4723
G01 X-37.9574 Y-0.2462
G01 X-37.9691 Y-0.2436
G01 X-39.0322 Y0.8204
G03 X-39.7537 Y1.1277 I-0.7218 J-0.6939
G02 X-42.3068 Y1.1325 I-1.2582 J9.7245
G01 X-42.2754 Y1.7706
G02 X-41.4345 Y7.6391 I29.7638 J-1.2705
G03 X-41.3154 Y7.9181 I-1.4004 J0.7627
G02 X-40.9369 Y9.2105 I5.9900 J-1.0524
G01 X-40.9139 Y9.3056
G01 X-40.8961 Y9.4015
G03 X-40.3303 Y10.9594 I-205.8998 J75.6729
G02 X-33.7070 Y21.1155 I28.9034 J-11.6113
G02 X-27.7652 Y26.2176 I26.3877 J-24.7201
G02 X-26.6756 Y26.9698 I21.9403 J-30.6136
G01 X-26.6527 Y26.9645
G01 X-26.1458 Y26.3307
G01 X-26.3019 Y26.2059
G00 Z1.0000
G00 X-38.1288 Y2.8059
G00 Z-1.5000
G01 Z-3.0000 F600
G01 X-42.0091 F1200
G01 X-41.8193 Y4.6059
G01 X-37.9520
G01 X-37.6064 Y6.4059
G01 X-41.5043
G01 X-41.0577 Y8.2059
G01 X-37.1418
G01 X-36.5142 Y10.0059
G01 X-40.4652
G01 X-39.7657 Y11.8059
G01 X-35.7351
G01 X-34.8175 Y13.6059
G01 X-38.9071
G01 X-37.8790 Y15.4059
G01 X-33.7130
G01 X-32.4281 Y17.2059
G01 X-36.6925
G01 X-35.3297 Y19.0059
G01 X-30.9252
G01 X-29.1722 Y20.8059
G01 X-33.7242
G01 X-31.9232 Y22.6059
G01 X-27.1311
G01 Y24.4059
G01 X-24.8600
G01 X-29.8556
G01 X-27.4358
G01 Y26.2059
G01 X-26.3019
G00 Z1.0000
G00 Z-1.5000
G01 Z-3.0000 F600
G01 X-26.1458 Y26.3307 F1200
G01 X-25.0913 Y25.0124
G01 X-24.5323 Y24.3191
G01 X-24.5384 Y24.2980
G03 X-31.7872 Y17.6936 I19.4682 J-28.6480
G03 X-36.7861 Y8.6245 I21.8385 J-17.9496
G03 X-37.0062 Y7.9132 I6.5080 J-2.4038
G03 X-37.9578 Y1.7686 I20.3449 J-6.2968
G01 X-37.9631 Y1.1179
G01 X-37.9635 Y0.4723
G01 X-37.9574 Y-0.2462
G01 X-37.9691 Y-0.2436
G01 X-39.0322 Y0.8204
G03 X-39.7537 Y1.1277 I-0.7218 J-0.6939
G02 X-42.3068 Y1.1325 I-1.2582 J9.7245
G01 X-42.2754 Y1.7706
G02 X-41.4345 Y7.6391 I29.7638 J-1.2705
G03 X-41.3154 Y7.9181 I-1.4004 J0.7627
G02 X-40.9369 Y9.2105 I5.9900 J-1.0524
G01 X-40.9139 Y9.3056
G01 X-40.8961 Y9.4015
G03 X-40.3303 Y10.9594 I-205.8998 J75.6729
G02 X-33.7070 Y21.1155 I28.9034 J-11.6113
G02 X-27.7652 Y26.2176 I26.3877 J-24.7201
G02 X-26.6756 Y26.9698 I21.9403 J-30.6136
G01 X-26.6527 Y26.9645
G01 X-26.1458 Y26.3307
G01 X-26.3019 Y26.2059
G00 Z1.0000


(Nr. 8: Ausschnitt 17)
G00 X24.3403 Y-23.9836 Z1.0000
G00 Z0.5000
G01 Z-1.0000 F600
G01 X28.1933 F1200
G01 Y-22.1836
G01 X30.5055
G01 X25.4989
G01 X27.7502
G01 Y-20.3836
G01 X32.4282
G01 X34.1785 Y-18.5836
G01 X29.6625
G01 X31.3190 Y-16.7836
G01 X35.6574
G01 X36.9654 Y-14.9836
G01 X32.7420
G01 X33.9498 Y-13.1836
G01 X38.0716
G01 X39.0149 Y-11.3836
G01 X34.9687
G01 X35.8558 Y-9.5836
G01 X39.8468
G01 X40.4943 Y-7.7836
G01 X36.5468
G01 X37.1121 Y-5.9836
G01 X41.0151
G01 X41.4326 Y-4.1836
G01 X37.5343
G01 X37.8200 Y-2.3836
G01 X41.7050
G01 X41.8206 Y-0.5836
G01 X37.9266
G01 X37.9314 Y1.2164
G01 X40.8669
G01 X39.0626 Y3.0164
G01 X37.8863
G00 Z1.0000
G00 Z0.5000
G01 Z-1.0000 F600
G01 X37.6866 Y3.0050 F1200
G03 X37.4944 Y4.8616 I-17.5646 J-0.8800
G01 X42.0395 Y0.3319
G02 X41.8093 Y-3.2925 I-27.6212 J-0.0648
G03 X41.6720 Y-4.0096 I1.8079 J-0.7179
G01 X41.6706 Y-4.1091
G03 X41.4704 Y-4.9860 I3.5618 J-1.2744
G02 X41.0675 Y-6.6070 I-60.5233 J14.1811
G01 X41.0208 Y-6.6989
G01 X40.9853 Y-6.7859
G02 X40.3807 Y-8.7223 I-14.0659 J3.3294
G01 X40.0135 Y-9.7093
G02 X35.9840 Y-16.6859 I-29.5961 J12.4417
G02 X34.8119 Y-18.1688 I-49.2783 J37.7470
G02 X30.6122 Y-22.3556 I-37.8804 J33.7967
G02 X26.5410 Y-25.3780 I-29.9063 J36.0308
G01 X26.4427 Y-25.4282
G02 X25.8742 Y-25.8092 I-3.9756 J5.3177
G01 X25.7354 Y-25.9008
G03 X23.5026 Y-23.3204 I-279.3907 J-239.4938
G03 X28.9118 Y-19.0469 I-18.3822 J28.8275
G03 X35.8872 Y-8.9793 I-20.3152 J21.5258
G02 X36.2859 Y-7.9732 I17.0767 J-6.1840
G02 X36.3893 Y-7.6459 I0.7325 J-0.0514
G03 X37.7130 Y-1.1249 I-22.1956 J7.9002
G03 X37.6866 Y3.0050 I-52.1975 J1.7319
G01 X37.8863 Y3.0164
G00 Z1.0000
G00 X28.1933 Y-23.9836
G00 Z-0.5000
G01 Z-2.0000 F600
G01 X24.3403 F1200
G01 X25.4989 Y-22.1836
G01 X30.5055
G01 X32.4282 Y-20.3836
G01 X27.7502
G01 X29.6625 Y-18.5836
G01 X34.1785
G01 X35.6574 Y-16.7836
G01 X31.3190
G01 X32.7420 Y-14.9836
G01 X36.9654
G01 X38.0716 Y-13.1836
G01 X33.9498
G01 X34.9687 Y-11.3836
G01 X39.0149
G01 X39.8468 Y-9.5836
G01 X35.8558
G01 X36.5468 Y-7.7836
G01 X40.4943
G01 X41.0151 Y-5.9836
G01 X37.1121
G01 X37.5343 Y-4.1836
G01 X41.4326
G01 X41.7050 Y-2.3836
G01 X37.8200
G01 X37.9266 Y-0.5836
G01 X41.8206
G01 X40.8669 Y1.2164
G01 X37.9314
G01 X37.8863 Y3.0164
G01 X39.0626
G00 Z1.0000
G00 Z-0.5000
G01 Z-2.0000 F600
G01 X39.2037 Y3.1580 F1200
G01 X42.0395 Y0.3319
G02 X41.8093 Y-3.2925 I-27.6212 J-0.0648
G03 X41.6720 Y-4.0096 I1.8079 J-0.7179
G01 X41.6706 Y-4.1091
G03 X41.4704 Y-4.9860 I3.5618 J-1.2744
G02 X41.0675 Y-6.6070 I-60.5233 J14.1811
G01 X41.0208 Y-6.6989
G01 X40.9853 Y-6.7859
G02 X40.3807 Y-8.7223 I-14.0659 J3.3294
G01 X40.0135 Y-9.7093
G02 X35.9840 Y-16.6859 I-29.5961 J12.4417
G02 X34.8119 Y-18.1688 I-49.2783 J37.7470
G02 X30.6122 Y-22.3556 I-37.8804 J33.7967
G02 X26.5410 Y-25.3780 I-29.9063 J36.0308
G01 X26.4427 Y-25.4282
G02 X25.8742 Y-25.8092 I-3.9756 J5.3177
G01 X25.7354 Y-25.9008
G03 X23.5026 Y-23.3204 I-279.3907 J-239.4938
G03 X28.9118 Y-19.0469 I-18.3822 J28.8275
G03 X35.8872 Y-8.9793 I-20.3152 J21.5258
G02 X36.2859 Y-7.9732 I17.0767 J-6.1840
G02 X36.3893 Y-7.6459 I0.7325 J-0.0514
G03 X37.7130 Y-1.1249 I-22.1956 J7.9002
G03 X37.5782 Y4.2631 I-35.4773 J1.8082
G02 X37.4944 Y4.8616 I171.7124 J24.3389
G01 X39.2037 Y3.1580
G01 X39.0626 Y3.0164
G00 Z1.0000
G00 X28.1933 Y-23.9836
G00 Z-1.5000
G01 Z-3.0000 F600
G01 X24.3403 F1200
G01 X25.4989 Y-22.1836
G01 X30.5055
G01 X32.4282 Y-20.3836
G01 X27.7502
G01 X29.6625 Y-18.5836
G01 X34.1785
G01 X35.6574 Y-16.7836
G01 X31.3190
G01 X32.7420 Y-14.9836
G01 X36.9654
G01 X38.0716 Y-13.1836
G01 X33.9498
G01 X34.9687 Y-11.3836
G01 X39.0149
G01 X39.8468 Y-9.5836
G01 X35.8558
G01 X36.5468 Y-7.7836
G01 X40.4943
G01 X41.0151 Y-5.9836
G01 X37.1121
G01 X37.5343 Y-4.1836
G01 X41.4326
G01 X41.7050 Y-2.3836
G01 X37.8200
G01 X37.9266 Y-0.5836
G01 X41.8206
G01 X40.8669 Y1.2164
G01 X37.9314
G01 X37.8863 Y3.0164
G01 X39.0626
G00 Z1.0000
G00 Z-1.5000
G01 Z-3.0000 F600
G01 X39.2037 Y3.1580 F1200
G01 X42.0395 Y0.3319
G02 X41.8093 Y-3.2925 I-27.6212 J-0.0648
G03 X41.6720 Y-4.0096 I1.8079 J-0.7179
G01 X41.6706 Y-4.1091
G03 X41.4704 Y-4.9860 I3.5618 J-1.2744
G02 X41.0675 Y-6.6070 I-60.5233 J14.1811
G01 X41.0208 Y-6.6989
G01 X40.9853 Y-6.7859
G02 X40.3807 Y-8.7223 I-14.0659 J3.3294
G01 X40.0135 Y-9.7093
G02 X35.9840 Y-16.6859 I-29.5961 J12.4417
G02 X34.8119 Y-18.1688 I-49.2783 J37.7470
G02 X30.6122 Y-22.3556 I-37.8804 J33.7967
G02 X26.5410 Y-25.3780 I-29.9063 J36.0308
G01 X26.4427 Y-25.4282
G02 X25.8742 Y-25.8092 I-3.9756 J5.3177
G01 X25.7354 Y-25.9008
G03 X23.5026 Y-23.3204 I-279.3907 J-239.4938
G03 X28.9118 Y-19.0469 I-18.3822 J28.8275
G03 X35.8872 Y-8.9793 I-20.3152 J21.5258
G02 X36.2859 Y-7.9732 I17.0767 J-6.1840
G02 X36.3893 Y-7.6459 I0.7325 J-0.0514
G03 X37.7130 Y-1.1249 I-22.1956 J7.9002
G03 X37.5782 Y4.2631 I-35.4773 J1.8082
G02 X37.4944 Y4.8616 I171.7124 J24.3389
G01 X39.2037 Y3.1580
G01 X39.0626 Y3.0164
G00 Z1.0000


(Nr. 9: Ausschnitt 18)
G00 X37.4479 Y12.0882 Z1.0000
G00 Z0.5000
G01 Z-1.0000 F600
G01 X35.3890 F1200
G01 X34.4238 Y13.8882
G01 X38.5292
G01 X37.4939 Y15.6882
G01 X33.3154
G01 X31.9913 Y17.4882
G01 X36.2737
G01 X34.8766 Y19.2882
G01 X30.4234
G01 X28.6443 Y21.0882
G01 X33.2531
G01 X31.3878 Y22.8882
G01 X26.5661
G01 X24.8713 Y24.6882
G01 X29.3046
G00 Z1.0000
G00 Z0.5000
G01 Z-1.0000 F600
G01 X29.4292 Y24.8447 F1200
G02 X34.8330 Y19.6571 I-27.6392 J-34.1995
G02 X37.2911 Y16.3935 I-31.3096 J-26.1396
G03 X37.5885 Y15.9248 I1.2943 J0.4924
G02 X39.0088 Y13.3864 I-36.6103 J-22.1509
G02 X35.9677 Y10.3241 I-195.8184 J191.4183
G01 X35.9086 Y10.4627
G02 X35.6181 Y11.1360 I2.3476 J1.4121
G03 X33.2938 Y15.3702 I-32.1705 J-14.9045
G03 X32.3603 Y16.6835 I-31.9571 J-21.7280
G03 X25.8109 Y23.2438 I-28.7314 J-22.1341
G01 X25.7152 Y23.3203
G02 X24.5976 Y24.1075 I5.9713 J9.6645
G01 X24.3074 Y24.3000
G02 X26.4399 Y26.9622 I103.8369 J-80.9884
G02 X29.4292 Y24.8447 I-18.8699 J-29.8074
G01 X29.3046 Y24.6882
G00 Z1.0000
G00 X35.3890 Y12.0882
G00 Z-0.5000
G01 Z-2.0000 F600
G01 X37.4479 F1200
G01 X38.5292 Y13.8882
G01 X34.4238
G01 X33.3154 Y15.6882
G01 X37.4939
G01 X36.2737 Y17.4882
G01 X31.9913
G01 X30.4234 Y19.2882
G01 X34.8766
G01 X33.2531 Y21.0882
G01 X28.6443
G01 Y22.8882
G01 X26.5661
G01 X31.3878
G01 X29.3046
G01 Y24.6882
G01 X24.8713
G00 Z1.0000
G00 Z-0.5000
G01 Z-2.0000 F600
G01 X24.7149 Y24.8126 F1200
G02 X26.4399 Y26.9622 I81.1350 J-63.3403
G02 X28.4922 Y25.5675 I-29.6527 J-45.8409
G02 X34.8330 Y19.6571 I-26.2309 J-34.4976
G02 X37.2911 Y16.3935 I-31.3096 J-26.1396
G03 X37.5885 Y15.9248 I1.2943 J0.4924
G02 X39.0088 Y13.3864 I-36.6103 J-22.1509
G02 X35.9677 Y10.3241 I-195.8184 J191.4183
G01 X35.9086 Y10.4627
G02 X35.6181 Y11.1360 I2.3476 J1.4121
G03 X33.2938 Y15.3702 I-32.1705 J-14.9045
G03 X32.3603 Y16.6835 I-31.9571 J-21.7280
G03 X25.8109 Y23.2438 I-28.7314 J-22.1341
G01 X25.7152 Y23.3203
G02 X24.5976 Y24.1075 I5.9713 J9.6645
G01 X24.3074 Y24.3000
G01 X24.7149 Y24.8126
G01 X24.8713 Y24.6882
G00 Z1.0000
G00 X35.3890 Y12.0882
G00 Z-1.5000
G01 Z-3.0000 F600
G01 X37.4479 F1200
G01 X38.5292 Y13.8882
G01 X34.4238
G01 X33.3154 Y15.6882
G01 X37.4939
G01 X36.2737 Y17.4882
G01 X31.9913
G01 X30.4234 Y19.2882
G01 X34.8766
G01 X33.2531 Y21.0882
G01 X28.6443
G01 Y22.8882
G01 X26.5661
G01 X31.3878
G01 X29.3046
G01 Y24.6882
G01 X24.8713
G00 Z1.0000
G00 Z-1.5000
G01 Z-3.0000 F600
G01 X24.7149 Y24.8126 F1200
G02 X26.4399 Y26.9622 I81.1350 J-63.3403
G02 X28.4922 Y25.5675 I-29.6527 J-45.8409
G02 X34.8330 Y19.6571 I-26.2309 J-34.4976
G02 X37.2911 Y16.3935 I-31.3096 J-26.1396
G03 X37.5885 Y15.9248 I1.2943 J0.4924
G02 X39.0088 Y13.3864 I-36.6103 J-22.1509
G02 X35.9677 Y10.3241 I-195.8184 J191.4183
G01 X35.9086 Y10.4627
G02 X35.6181 Y11.1360 I2.3476 J1.4121
G03 X33.2938 Y15.3702 I-32.1705 J-14.9045
G03 X32.3603 Y16.6835 I-31.9571 J-21.7280
G03 X25.8109 Y23.2438 I-28.7314 J-22.1341
G01 X25.7152 Y23.3203
G02 X24.5976 Y24.1075 I5.9713 J9.6645
G01 X24.3074 Y24.3000
G01 X24.7149 Y24.8126
G01 X24.8713 Y24.6882
G00 Z1.0000


(Nr. 10: Ausschnitt 25)
G00 X46.5190 Y2.0612 Z1.0000
G00 Z0.5000
G01 Z-1.0000 F600
G01 X48.5723 F1200
G01 X46.7836 Y3.8612
G01 X44.7194
G01 X45.1279 Y5.6612
G01 X42.9198
G01 X41.1202 Y7.4612
G01 X45.7989
G01 X45.6002 Y9.2612
G01 X41.1203
G01 X42.9209 Y11.0612
G01 X45.1099
G01 X44.7214 Y12.8612
G01 X46.7270
G01 X46.5219 Y14.6612
G01 X48.5145
G00 Z1.0000
G00 Z0.5000
G01 Z-1.0000 F600
G01 X48.6562 Y14.5199 F1200
G03 X45.5665 Y11.3485 I46.9678 J-48.8480
G03 X45.1542 Y10.4614 I0.8515 J-0.9351
G01 Y10.3446
G01 X45.1567 Y10.2539
G03 X46.1542 Y9.3246 I0.9975 J0.0707
G01 X56.1738
G01 Y7.3978
G01 X50.9165
G01 X49.0826 Y7.3964
G03 X46.3021 Y7.3556 I-0.8787 J-34.9101
G03 X45.1555 Y6.3369 I-0.0498 J-1.0985
G01 X45.1554 Y6.2370
G03 X45.5443 Y5.4480 I1.2313 J0.1166
G03 X49.0891 Y1.8244 I85.0050 J79.6112
G01 X46.4788
G01 X46.4690 Y1.8284
G01 X39.9374 Y8.3613
G01 X46.4690 Y14.8940
G01 X46.4788 Y14.8981
G01 X49.0274 Y14.8919
G01 X48.6562 Y14.5199
G01 X48.5145 Y14.6612
G00 Z1.0000
G00 X48.5723 Y2.0612
G00 Z-0.5000
G01 Z-2.0000 F600
G01 X46.5190 F1200
G01 X46.7836 Y3.8612
G01 X44.7194
G01 X45.1279 Y5.6612
G01 X42.9198
G01 X41.1202 Y7.4612
G01 X45.7989
G01 X45.6002 Y9.2612
G01 X41.1203
G01 X42.9209 Y11.0612
G01 X45.1099
G01 X44.7214 Y12.8612
G01 X46.7270
G01 X46.5219 Y14.6612
G01 X48.5145
G00 Z1.0000
G00 Z-0.5000
G01 Z-2.0000 F600
G01 X48.6562 Y14.5199 F1200
G03 X45.5665 Y11.3485 I46.9678 J-48.8480
G03 X45.1542 Y10.4614 I0.8515 J-0.9351
G01 Y10.3446
G01 X45.1567 Y10.2539
G03 X46.1542 Y9.3246 I0.9975 J0.0707
G01 X56.1738
G01 Y7.3978
G01 X50.9165
G01 X49.0826 Y7.3964
G03 X46.3021 Y7.3556 I-0.8787 J-34.9101
G03 X45.1555 Y6.3369 I-0.0498 J-1.0985
G01 X45.1554 Y6.2370
G03 X45.5443 Y5.4480 I1.2313 J0.1166
G03 X49.0891 Y1.8244 I85.0050 J79.6112
G01 X46.4788
G01 X46.4690 Y1.8284
G01 X39.9374 Y8.3613
G01 X46.4690 Y14.8940
G01 X46.4788 Y14.8981
G01 X49.0274 Y14.8919
G01 X48.6562 Y14.5199
G01 X48.5145 Y14.6612
G00 Z1.0000


(Nr. 11: Ausschnitt 29)
G00 X48.8066 Y2.0770 Z1.0000
G00 Z0.5000
G01 Z-1.0000 F600
G01 X46.2499 F1200
G01 X47.0075 Y3.8770
G01 X44.4502
G01 X45.2686 Y5.6770
G01 X42.6515
G01 X40.8675 Y7.4770
G01 X48.5788
G01 X47.2896 Y9.2770
G01 X40.8989
G01 X42.6834 Y11.0770
G01 X45.2386
G01 X44.4829 Y12.8770
G01 X46.9771
G01 X46.2838 Y14.6770
G01 X48.7767
G00 Z1.0000
G00 Z0.5000
G01 Z-1.0000 F600
G01 X48.9183 Y14.5359 F1200
G01 X48.6029 Y14.2194
G01 X45.5874 Y11.2042
G03 X45.2809 Y10.5178 I0.6943 J-0.7216
G01 X45.2824 Y10.4178
G03 X46.2745 Y9.4829 I0.9979 J0.0650
G01 X51.8083 Y9.4511
G01 X56.3078 Y9.4195
G01 X56.3049 Y7.2998
G01 X46.3272 Y7.2704
G03 X45.3102 Y6.2846 I-0.0167 J-1.0002
G01 X45.3138 Y6.1847
G03 X45.6033 Y5.5630 I0.9963 J0.0857
G02 X49.4111 Y1.7475 I-77.8542 J-81.5055
G01 X48.7046 Y1.7429
G01 X46.3106 Y1.7334
G02 X39.7342 Y8.3525 I289.5245 J294.2348
G02 X42.8696 Y11.5474 I102.6218 J-97.5731
G01 X46.3513 Y15.0244
G01 X49.2827 Y15.0215
G01 X49.3021 Y15.0214
G01 X49.3955 Y15.0149
G01 X48.9183 Y14.5359
G01 X48.7767 Y14.6770
G00 Z1.0000
G00 X48.8066 Y2.0770
G00 Z-0.5000
G01 Z-2.0000 F600
G01 X46.2499 F1200
G01 X47.0075 Y3.8770
G01 X44.4502
G01 X45.2686 Y5.6770
G01 X42.6515
G01 X40.8675 Y7.4770
G01 X48.5788
G01 X47.2896 Y9.2770
G01 X40.8989
G01 X42.6834 Y11.0770
G01 X45.2386
G01 X44.4829 Y12.8770
G01 X46.9771
G01 X46.2838 Y14.6770
G01 X48.7767
G00 Z1.0000
G00 Z-0.5000
G01 Z-2.0000 F600
G01 X48.9183 Y14.5359 F1200
G01 X48.6029 Y14.2194
G01 X45.5874 Y11.2042
G03 X45.2809 Y10.5178 I0.6943 J-0.7216
G01 X45.2824 Y10.4178
G03 X46.2745 Y9.4829 I0.9979 J0.0650
G01 X51.8083 Y9.4511
G01 X56.3078 Y9.4195
G01 X56.3049 Y7.2998
G01 X46.3272 Y7.2704
G03 X45.3102 Y6.2846 I-0.0167 J-1.0002
G01 X45.3138 Y6.1847
G03 X45.6033 Y5.5630 I0.9963 J0.0857
G02 X49.4111 Y1.7475 I-77.8542 J-81.5055
G01 X48.7046 Y1.7429
G01 X46.3106 Y1.7334
G02 X39.7342 Y8.3525 I289.5245 J294.2348
G02 X42.8696 Y11.5474 I102.6218 J-97.5731
G01 X46.3513 Y15.0244
G01 X49.2827 Y15.0215
G01 X49.3021 Y15.0214
G01 X49.3955 Y15.0149
G01 X48.9183 Y14.5359
G01 X48.7767 Y14.6770
G00 Z1.0000


(Nr. 12: Ausschnitt 27)
G00 X-40.5316 Y-12.6310 Z1.0000
G00 Z0.5000
G01 Z-1.0000 F600
G01 X-42.0050 F1200
G00 Z1.0000
G00 X-40.1598 Y-10.8310
G00 Z0.5000
G01 Z-1.0000 F600
G01 X-38.7321 F1200
G01 X-39.9960 Y-9.0310
G01 X-36.9390
G01 X-36.9498 Y-7.2310
G01 X-40.0512
G01 X-40.1942 Y-5.4310
G01 X-38.7432
G00 Z1.0000
G00 X-40.5433 Y-3.6310
G00 Z0.5000
G01 Z-1.0000 F600
G01 X-41.9629 F1200
G00 Z1.0000
G00 Z0.5000
G01 Z-1.0000 F600
G01 X-42.1049 Y-3.7724 F1200
G01 X-42.7891 Y-3.0852
G01 X-42.9130 Y-2.9540
G01 X-40.9378 Y-2.9536
G02 X-35.7807 Y-8.1377 I-219.5796 J-223.5932
G02 X-40.9329 Y-13.3124 I-440.0255 J432.9657
G01 X-42.9527
G02 X-40.3610 Y-10.7402 I55.9382 J-53.7721
G03 X-40.8655 Y-8.8548 I-0.5123 J0.8731
G03 X-48.7927 Y-8.8155 I-5.9627 J-403.3520
G01 Y-7.4588
G01 X-44.9960 Y-7.4586
G03 X-40.9531 Y-7.4190 I1.2919 J74.3879
G03 X-40.2121 Y-5.7059 I0.0175 J1.0092
G03 X-42.1049 Y-3.7724 I-68.6118 J-65.2756
G01 X-41.9629 Y-3.6310
G00 Z1.0000
G00 X-42.0050 Y-12.6310
G00 Z-0.5000
G01 Z-2.0000 F600
G01 X-40.5316 F1200
G00 Z1.0000
G00 X-40.1598 Y-10.8310
G00 Z-0.5000
G01 Z-2.0000 F600
G01 X-38.7321 F1200
G01 X-39.9960 Y-9.0310
G01 X-36.9390
G01 X-36.9498 Y-7.2310
G01 X-40.0512
G01 X-40.1942 Y-5.4310
G01 X-38.7432
G00 Z1.0000
G00 X-40.5433 Y-3.6310
G00 Z-0.5000
G01 Z-2.0000 F600
G01 X-41.9629 F1200
G00 Z1.0000
G00 Z-0.5000
G01 Z-2.0000 F600
G01 X-42.1049 Y-3.7724 F1200
G01 X-42.7891 Y-3.0852
G01 X-42.9130 Y-2.9540
G01 X-40.9378 Y-2.9536
G02 X-35.7807 Y-8.1377 I-219.5796 J-223.5932
G02 X-40.9329 Y-13.3124 I-440.0255 J432.9657
G01 X-42.9527
G02 X-40.3610 Y-10.7402 I55.9382 J-53.7721
G03 X-40.8655 Y-8.8548 I-0.5123 J0.8731
G03 X-48.7927 Y-8.8155 I-5.9627 J-403.3520
G01 Y-7.4588
G01 X-44.9960 Y-7.4586
G03 X-40.9531 Y-7.4190 I1.2919 J74.3879
G03 X-40.2121 Y-5.7059 I0.0175 J1.0092
G03 X-42.1049 Y-3.7724 I-68.6118 J-65.2756
G01 X-41.9629 Y-3.6310
G00 Z1.0000


(Nr. 13: Ausschnitt 30)
G00 X35.3903 Y-37.0770 Z1.0000
G00 Z0.5000
G01 Z-1.0000 F600
G01 X39.7390 F1200
G01 Y-35.2770
G01 X42.2729
G01 X33.8289
G01 X34.4089 Y-33.4770
G01 X44.5222
G01 Y-31.6770
G01 X46.5814
G01 X36.9595
G01 X39.2323
G01 Y-29.8770
G01 X48.4236
G01 X50.1189 Y-28.0770
G01 X41.2435
G01 X43.0688 Y-26.2770
G01 X51.6816
G01 X53.0824 Y-24.4770
G01 X44.7242
G01 X46.1943 Y-22.6770
G01 X54.3515
G01 X55.5045 Y-20.8770
G01 X47.5168
G01 X48.7077 Y-19.0770
G01 X56.5549
G01 X57.4732 Y-17.2770
G01 X49.7711
G01 X50.7092 Y-15.4770
G01 X58.2980
G01 X59.0381 Y-13.6770
G01 X51.5374
G01 X52.2436 Y-11.8770
G01 X59.6712
G01 X60.2157 Y-10.0770
G01 X52.8561
G01 X53.3692 Y-8.2770
G01 X60.6859
G01 X61.0543 Y-6.4770
G01 X53.7882
G01 X54.1157 Y-4.6770
G01 X61.3331
G01 X61.5381 Y-2.8770
G01 X54.3480
G01 X57.4535
G01 Y-1.0770
G01 X61.6583
G01 X61.6801 Y0.7230
G01 X56.0986
G01 X54.4883 Y2.5230
G01 X61.6408
G01 X61.5411 Y4.3230
G01 X60.3591
G00 Z1.0000
G00 X59.0648 Y15.1230
G00 Z0.5000
G01 Z-1.0000 F600
G01 X55.2190 F1200
G01 X57.0136 Y16.9230
G01 X58.3404
G00 Z1.0000
G00 X56.5907 Y20.5230
G00 Z0.5000
G01 Z-1.0000 F600
G01 X48.7627 F1200
G01 X47.5872 Y22.3230
G01 X55.5548
G01 X54.4086 Y24.1230
G01 X46.2642
G01 X44.7919 Y25.9230
G01 X53.1399
G01 X51.7383 Y27.7230
G01 X43.1599
G01 X41.3528 Y29.5230
G01 X50.1941
G01 X48.5015 Y31.3230
G01 X39.3412
G01 Y33.1230
G01 X37.0841
G01 X46.6566
G01 X44.6320
G01 Y34.9230
G01 X34.5410
G01 X34.2745 Y36.7230
G01 X42.3851
G01 X39.8712
G01 Y38.5230
G01 X35.7241
G00 Z1.0000
G00 Z0.5000
G01 Z-1.0000 F600
G01 X35.5683 Y38.6483 F1200
G02 X37.1198 Y40.5404 I28.3199 J-21.6401
G02 X38.0934 Y39.9287 I-26.8346 J-43.7903
G02 X53.3923 Y25.9192 I-29.5979 J-47.6803
G01 X53.7733 Y25.3937
G01 X54.1463 Y24.8639
G02 X61.6661 Y5.1828 I-34.9127 J-24.6167
G02 X61.7511 Y-2.7598 I-46.9445 J-4.4740
G02 X61.2106 Y-6.7579 I-46.4292 J4.2406
G02 X53.8018 Y-23.8209 I-42.8747 J8.4762
G01 X53.0667 Y-24.8412
G02 X42.2508 Y-35.5482 I-44.5372 J34.1737
G02 X36.9052 Y-39.1266 I-41.8332 J56.7102
G02 X32.7453 Y-34.3218 I438.5776 J383.9123
G01 X32.7445 Y-34.3033
G03 X45.6611 Y-23.0338 I-26.1011 J42.9528
G03 X48.2283 Y-19.4590 I-35.3364 J28.0865
G03 X54.2128 Y-2.1600 I-31.6199 J20.6233
G01 X56.2477 Y-2.1369
G03 X56.9649 Y-0.4311 I0.0084 J1.0001
G01 X54.3037 Y2.2412
G01 X54.2704 Y2.8516
G01 X54.2361 Y3.4246
G01 X54.2375 Y3.4392
G01 X59.1542 Y3.4661
G03 X60.1687 Y4.4662 I0.0142 J1.0002
G01 Y12.2364
G03 X59.1729 Y13.2564 I-1.0001 J0.0197
G02 X53.1096 Y13.2877 I-2.9317 J19.3961
G01 X53.7383 Y13.9219
G01 X56.9488 Y17.1412
G03 X56.2548 Y18.8615 I-0.6941 J0.7201
G02 X49.5138 Y18.8853 I-2.6807 J195.6202
G01 X49.4901 Y18.8909
G03 X47.5259 Y22.0622 I-36.7095 J-20.5429
G03 X34.2093 Y34.9052 I-39.9084 J-28.0545
G03 X33.1200 Y35.6107 I-22.6526 J-33.7809
G01 X34.4906 Y37.3091
G01 X35.5683 Y38.6483
G01 X35.7241 Y38.5230
G00 Z1.0000
G00 X35.3903 Y-37.0770
G00 Z-0.5000
G01 Z-2.0000 F600
G01 X39.7390 F1200
G01 Y-35.2770
G01 X42.2729
G01 X33.8289
G01 X34.4089 Y-33.4770
G01 X44.5222
G01 Y-31.6770
G01 X46.5814
G01 X36.9595
G01 X39.2323
G01 Y-29.8770
G01 X48.4236
G01 X50.1189 Y-28.0770
G01 X41.2435
G01 X43.0688 Y-26.2770
G01 X51.6816
G01 X53.0824 Y-24.4770
G01 X44.7242
G01 X46.1943 Y-22.6770
G01 X54.3515
G01 X55.5045 Y-20.8770
G01 X47.5168
G01 X48.7077 Y-19.0770
G01 X56.5549
G01 X57.4732 Y-17.2770
G01 X49.7711
G01 X50.7092 Y-15.4770
G01 X58.2980
G01 X59.0381 Y-13.6770
G01 X51.5374
G01 X52.2436 Y-11.8770
G01 X59.6712
G01 X60.2157 Y-10.0770
G01 X52.8561
G01 X53.3692 Y-8.2770
G01 X60.6859
G01 X61.0543 Y-6.4770
G01 X53.7882
G01 X54.1157 Y-4.6770
G01 X61.3331
G01 X61.5381 Y-2.8770
G01 X54.3480
G01 X57.4535
G01 Y-1.0770
G01 X61.6583
G01 X61.6801 Y0.7230
G01 X56.0986
G01 X54.4883 Y2.5230
G01 X61.6408
G01 X61.5411 Y4.3230
G01 X60.3591
G00 Z1.0000
G00 X59.0648 Y15.1230
G00 Z-0.5000
G01 Z-2.0000 F600
G01 X55.2190 F1200
G01 X57.0136 Y16.9230
G01 X58.3404
G00 Z1.0000
G00 X56.5907 Y20.5230
G00 Z-0.5000
G01 Z-2.0000 F600
G01 X48.7627 F1200
G01 X47.5872 Y22.3230
G01 X55.5548
G01 X54.4086 Y24.1230
G01 X46.2642
G01 X44.7919 Y25.9230
G01 X53.1399
G01 X51.7383 Y27.7230
G01 X43.1599
G01 X41.3528 Y29.5230
G01 X50.1941
G01 X48.5015 Y31.3230
G01 X39.3412
G01 Y33.1230
G01 X37.0841
G01 X46.6566
G01 X44.6320
G01 Y34.9230
G01 X34.5410
G01 X34.2745 Y36.7230
G01 X42.3851
G01 X39.8712
G01 Y38.5230
G01 X35.7241
G00 Z1.0000
G00 Z-0.5000
G01 Z-2.0000 F600
G01 X35.5683 Y38.6483 F1200
G02 X37.1198 Y40.5404 I28.3199 J-21.6401
G02 X38.0934 Y39.9287 I-26.8346 J-43.7903
G02 X53.3923 Y25.9192 I-29.5979 J-47.6803
G01 X53.7733 Y25.3937
G01 X54.1463 Y24.8639
G02 X61.6661 Y5.1828 I-34.9127 J-24.6167
G02 X61.7511 Y-2.7598 I-46.9445 J-4.4740
G02 X61.2106 Y-6.7579 I-46.4292 J4.2406
G02 X53.8018 Y-23.8209 I-42.8747 J8.4762
G01 X53.0667 Y-24.8412
G02 X42.2508 Y-35.5482 I-44.5372 J34.1737
G02 X36.9052 Y-39.1266 I-41.8332 J56.7102
G02 X32.7453 Y-34.3218 I438.5776 J383.9123
G01 X32.7445 Y-34.3033
G03 X45.6611 Y-23.0338 I-26.1011 J42.9528
G03 X48.2283 Y-19.4590 I-35.3364 J28.0865
G03 X54.2128 Y-2.1600 I-31.6199 J20.6233
G01 X56.2477 Y-2.1369
G03 X56.9649 Y-0.4311 I0.0084 J1.0001
G01 X54.3037 Y2.2412
G01 X54.2704 Y2.8516
G01 X54.2361 Y3.4246
G01 X54.2375 Y3.4392
G01 X59.1542 Y3.4661
G03 X60.1687 Y4.4662 I0.0142 J1.0002
G01 Y12.2364
G03 X59.1729 Y13.2564 I-1.0001 J0.0197
G02 X53.1096 Y13.2877 I-2.9317 J19.3961
G01 X53.7383 Y13.9219
G01 X56.9488 Y17.1412
G03 X56.2548 Y18.8615 I-0.6941 J0.7201
G02 X49.5138 Y18.8853 I-2.6807 J195.6202
G01 X49.4901 Y18.8909
G03 X47.5259 Y22.0622 I-36.7095 J-20.5429
G03 X34.2093 Y34.9052 I-39.9084 J-28.0545
G03 X33.1200 Y35.6107 I-22.6526 J-33.7809
G01 X34.4906 Y37.3091
G01 X35.5683 Y38.6483
G01 X35.7241 Y38.5230
G00 Z1.0000
G00 X35.3903 Y-37.0770
G00 Z-1.5000
G01 Z-3.0000 F600
G01 X39.7390 F1200
G01 Y-35.2770
G01 X42.2729
G01 X33.8289
G01 X34.4089 Y-33.4770
G01 X44.5222
G01 Y-31.6770
G01 X46.5814
G01 X36.9595
G01 X39.2323
G01 Y-29.8770
G01 X48.4236
G01 X50.1189 Y-28.0770
G01 X41.2435
G01 X43.0688 Y-26.2770
G01 X51.6816
G01 X53.0824 Y-24.4770
G01 X44.7242
G01 X46.1943 Y-22.6770
G01 X54.3515
G01 X55.5045 Y-20.8770
G01 X47.5168
G01 X48.7077 Y-19.0770
G01 X56.5549
G01 X57.4732 Y-17.2770
G01 X49.7711
G01 X50.7092 Y-15.4770
G01 X58.2980
G01 X59.0381 Y-13.6770
G01 X51.5374
G01 X52.2436 Y-11.8770
G01 X59.6712
G01 X60.2157 Y-10.0770
G01 X52.8561
G01 X53.3692 Y-8.2770
G01 X60.6859
G01 X61.0543 Y-6.4770
G01 X53.7882
G01 X54.1157 Y-4.6770
G01 X61.3331
G01 X61.5381 Y-2.8770
G01 X54.3480
G01 X57.4535
G01 Y-1.0770
G01 X61.6583
G01 X61.6801 Y0.7230
G01 X56.0986
G01 X54.4883 Y2.5230
G01 X61.6408
G01 X61.5411 Y4.3230
G01 X60.3591
G00 Z1.0000
G00 X59.0648 Y15.1230
G00 Z-1.5000
G01 Z-3.0000 F600
G01 X55.2190 F1200
G01 X57.0136 Y16.9230
G01 X58.3404
G00 Z1.0000
G00 X56.5907 Y20.5230
G00 Z-1.5000
G01 Z-3.0000 F600
G01 X48.7627 F1200
G01 X47.5872 Y22.3230
G01 X55.5548
G01 X54.4086 Y24.1230
G01 X46.2642
G01 X44.7919 Y25.9230
G01 X53.1399
G01 X51.7383 Y27.7230
G01 X43.1599
G01 X41.3528 Y29.5230
G01 X50.1941
G01 X48.5015 Y31.3230
G01 X39.3412
G01 Y33.1230
G01 X37.0841
G01 X46.6566
G01 X44.6320
G01 Y34.9230
G01 X34.5410
G01 X34.2745 Y36.7230
G01 X42.3851
G01 X39.8712
G01 Y38.5230
G01 X35.7241
G00 Z1.0000
G00 Z-1.5000
G01 Z-3.0000 F600
G01 X35.5683 Y38.6483 F1200
G02 X37.1198 Y40.5404 I28.3199 J-21.6401
G02 X38.0934 Y39.9287 I-26.8346 J-43.7903
G02 X53.3923 Y25.9192 I-29.5979 J-47.6803
G01 X53.7733 Y25.3937
G01 X54.1463 Y24.8639
G02 X61.6661 Y5.1828 I-34.9127 J-24.6167
G02 X61.7511 Y-2.7598 I-46.9445 J-4.4740
G02 X61.2106 Y-6.7579 I-46.4292 J4.2406
G02 X53.8018 Y-23.8209 I-42.8747 J8.4762
G01 X53.0667 Y-24.8412
G02 X42.2508 Y-35.5482 I-44.5372 J34.1737
G02 X36.9052 Y-39.1266 I-41.8332 J56.7102
G02 X32.7453 Y-34.3218 I438.5776 J383.9123
G01 X32.7445 Y-34.3033
G03 X45.6611 Y-23.0338 I-26.1011 J42.9528
G03 X48.2283 Y-19.4590 I-35.3364 J28.0865
G03 X54.2128 Y-2.1600 I-31.6199 J20.6233
G01 X56.2477 Y-2.1369
G03 X56.9649 Y-0.4311 I0.0084 J1.0001
G01 X54.3037 Y2.2412
G01 X54.2704 Y2.8516
G01 X54.2361 Y3.4246
G01 X54.2375 Y3.4392
G01 X59.1542 Y3.4661
G03 X60.1687 Y4.4662 I0.0142 J1.0002
G01 Y12.2364
G03 X59.1729 Y13.2564 I-1.0001 J0.0197
G02 X53.1096 Y13.2877 I-2.9317 J19.3961
G01 X53.7383 Y13.9219
G01 X56.9488 Y17.1412
G03 X56.2548 Y18.8615 I-0.6941 J0.7201
G02 X49.5138 Y18.8853 I-2.6807 J195.6202
G01 X49.4901 Y18.8909
G03 X47.5259 Y22.0622 I-36.7095 J-20.5429
G03 X34.2093 Y34.9052 I-39.9084 J-28.0545
G03 X33.1200 Y35.6107 I-22.6526 J-33.7809
G01 X34.4906 Y37.3091
G01 X35.5683 Y38.6483
G01 X35.7241 Y38.5230
G00 Z1.0000


(Nr. 14: Ausschnitt 31)
G00 X-35.6143 Y-37.0847 Z1.0000
G00 Z0.5000
G01 Z-1.0000 F600
G01 X-39.9593 F1200
G01 Y-35.2847
G01 X-42.4827
G01 X-34.0573
G01 X-34.6201 Y-33.4847
G01 X-44.7406
G01 Y-31.6847
G01 X-46.7806
G01 X-37.1689
G01 X-39.4500
G01 Y-29.8847
G01 X-48.6361
G01 X-50.3431 Y-28.0847
G01 X-41.4731
G01 X-43.3116 Y-26.2847
G01 X-51.8943
G01 X-53.2913 Y-24.4847
G01 X-44.9321
G01 X-46.4084 Y-22.6847
G01 X-54.5621
G01 X-55.7134 Y-20.8847
G01 X-47.7342
G01 X-48.9217 Y-19.0847
G01 X-56.7612
G01 X-57.7015 Y-17.2847
G01 X-49.9803
G01 X-50.9176 Y-15.4847
G01 X-58.5233
G01 X-59.2568 Y-13.6847
G01 X-51.7436
G01 X-52.4646 Y-11.8847
G01 X-59.8829
G01 X-60.4320 Y-10.0847
G01 X-53.0835
G01 X-53.5969 Y-8.2847
G01 X-60.8988
G01 X-61.2710 Y-6.4847
G01 X-54.0098
G01 X-54.3257 Y-4.6847
G01 X-61.5492
G01 X-61.7633 Y-2.8847
G01 X-54.5477
G01 X-54.6807 Y-1.0847
G01 X-61.8456
G01 X-61.8573 Y0.7153
G01 X-54.7269
G01 X-54.6935 Y2.5153
G01 X-61.8491
G01 X-61.7704 Y4.3153
G01 X-54.5741
G01 X-54.3520 Y6.1153
G01 X-61.5605
G01 X-61.2777 Y7.9153
G01 X-54.0267
G01 X-53.6127 Y9.7153
G01 X-60.9170
G01 X-60.4679 Y11.5153
G01 X-53.1094
G01 X-52.4927 Y13.3153
G01 X-59.9260
G01 X-59.2877 Y15.1153
G01 X-51.7808
G01 X-50.9639 Y16.9153
G01 X-58.5676
G01 X-57.7449 Y18.7153
G01 X-50.0236
G01 X-48.9761 Y20.5153
G01 X-56.8082
G01 X-55.7645 Y22.3153
G01 X-47.7874
G01 X-46.4760 Y24.1153
G01 X-54.6219
G01 X-53.3673 Y25.9153
G01 X-45.0062
G01 X-43.3802 Y27.7153
G01 X-51.9685
G01 X-50.4283 Y29.5153
G01 X-41.5800
G01 Y31.3153
G01 X-39.5628
G01 X-48.7401
G01 X-46.8890 Y33.1153
G01 X-37.3098
G01 Y34.9153
G01 X-34.7711
G01 X-44.8522
G01 X-42.6064
G01 Y36.7153
G01 X-34.4860
G01 X-35.9329 Y38.5153
G01 X-40.1103
G00 Z1.0000
G00 Z0.5000
G01 Z-1.0000 F600
G01 X-40.2219 Y38.6812 F1200
G02 X-37.2892 Y40.5226 I22.5569 J-32.6699
G03 X-33.3340 Y35.6060 I1325.7355 J1062.4166
G03 X-46.3624 Y23.9370 I25.8436 J-41.9619
G03 X-50.8185 Y16.7596 I32.5309 J-25.1689
G03 X-54.4509 Y3.3363 I33.1301 J-16.1684
G03 X-54.5248 Y1.3078 I37.8080 J-2.3932
G01 X-54.5276 Y0.7818
G01 X-54.5186 Y-0.0318
G03 X-52.9102 Y-9.9711 I35.5691 J0.6563
G03 X-43.8148 Y-25.4395 I39.1168 J12.5925
G01 X-42.8852 Y-26.4541
G03 X-32.9646 Y-34.3107 I38.2264 J38.0771
G02 X-37.1166 Y-39.1118 I-184.9775 J155.7742
G01 X-37.1304 Y-39.1242
G02 X-47.7666 Y-31.0281 I29.4352 J49.7050
G02 X-58.1610 Y-16.7831 I33.3667 J35.2620
G02 X-59.3739 Y-13.9438 I34.3282 J16.3434
G02 X-62.0053 Y-2.2836 I37.9680 J14.6954
G02 X-62.0475 Y-0.9863 I32.9666 J1.7215
G01 X-62.0555 Y-0.1969
G01 X-62.0580 Y0.7302
G01 X-62.0576 Y1.3560
G01 X-62.0555 Y1.9022
G02 X-62.0261 Y3.4723 I42.4474 J-0.0090
G02 X-55.4725 Y23.1690 I41.5006 J-2.8698
G02 X-53.4383 Y26.1570 I40.8369 J-25.6136
G02 X-40.2219 Y38.6812 I44.5652 J-33.7928
G01 X-40.1103 Y38.5153
G00 Z1.0000
G00 X-39.9593 Y-37.0847
G00 Z-0.5000
G01 Z-2.0000 F600
G01 X-35.6143 F1200
G01 X-34.0573 Y-35.2847
G01 X-42.4827
G01 Y-33.4847
G01 X-44.7406
G01 X-34.6201
G01 X-37.1689
G01 Y-31.6847
G01 X-46.7806
G01 X-48.6361 Y-29.8847
G01 X-39.4500
G01 X-41.4731
G01 Y-28.0847
G01 X-50.3431
G01 X-51.8943 Y-26.2847
G01 X-43.3116
G01 X-44.9321 Y-24.4847
G01 X-53.2913
G01 X-54.5621 Y-22.6847
G01 X-46.4084
G01 X-47.7342 Y-20.8847
G01 X-55.7134
G01 X-56.7612 Y-19.0847
G01 X-48.9217
G01 X-49.9803 Y-17.2847
G01 X-57.7015
G01 X-58.5233 Y-15.4847
G01 X-50.9176
G01 X-51.7436 Y-13.6847
G01 X-59.2568
G01 X-59.8829 Y-11.8847
G01 X-52.4646
G01 X-53.0835 Y-10.0847
G01 X-60.4320
G01 X-60.8988 Y-8.2847
G01 X-53.5969
G01 X-54.0098 Y-6.4847
G01 X-61.2710
G01 X-61.5492 Y-4.6847
G01 X-54.3257
G01 X-54.5477 Y-2.8847
G01 X-61.7633
G01 X-61.8456 Y-1.0847
G01 X-54.6807
G01 X-54.7269 Y0.7153
G01 X-61.8573
G01 X-61.8491 Y2.5153
G01 X-54.6935
G01 X-54.5741 Y4.3153
G01 X-61.7704
G01 X-61.5605 Y6.1153
G01 X-54.3520
G01 X-54.0267 Y7.9153
G01 X-61.2777
G01 X-60.9170 Y9.7153
G01 X-53.6127
G01 X-53.1094 Y11.5153
G01 X-60.4679
G01 X-59.9260 Y13.3153
G01 X-52.4927
G01 X-51.7808 Y15.1153
G01 X-59.2877
G01 X-58.5676 Y16.9153
G01 X-50.9639
G01 X-50.0236 Y18.7153
G01 X-57.7449
G01 X-56.8082 Y20.5153
G01 X-48.9761
G01 X-47.7874 Y22.3153
G01 X-55.7645
G01 X-54.6219 Y24.1153
G01 X-46.4760
G01 X-45.0062 Y25.9153
G01 X-53.3673
G01 X-51.9685 Y27.7153
G01 X-43.3802
G01 X-41.5800 Y29.5153
G01 X-50.4283
G01 X-48.7401 Y31.3153
G01 X-39.5628
G01 Y33.1153
G01 X-37.3098
G01 X-46.8890
G01 X-44.8522
G01 Y34.9153
G01 X-34.7711
G01 X-34.4860 Y36.7153
G01 X-42.6064
G01 X-40.1103
G01 Y38.5153
G01 X-35.9329
G00 Z1.0000
G00 Z-0.5000
G01 Z-2.0000 F600
G01 X-35.7762 Y38.6409 F1200
G03 X-33.3340 Y35.6060 I486.8234 J389.2350
G03 X-46.3624 Y23.9370 I25.8436 J-41.9619
G03 X-50.8185 Y16.7596 I32.5309 J-25.1689
G03 X-54.4509 Y3.3363 I33.1301 J-16.1684
G03 X-54.5248 Y1.3078 I37.8080 J-2.3932
G01 X-54.5276 Y0.7818
G01 X-54.5186 Y-0.0318
G03 X-52.9102 Y-9.9711 I35.5691 J0.6563
G03 X-43.8148 Y-25.4395 I39.1168 J12.5925
G01 X-42.8852 Y-26.4541
G03 X-32.9646 Y-34.3107 I38.2264 J38.0771
G02 X-37.1166 Y-39.1118 I-184.9775 J155.7742
G01 X-37.1304 Y-39.1242
G02 X-47.7666 Y-31.0281 I29.4352 J49.7050
G02 X-58.1610 Y-16.7831 I33.3667 J35.2620
G02 X-59.3739 Y-13.9438 I34.3282 J16.3434
G02 X-62.0053 Y-2.2836 I37.9680 J14.6954
G02 X-62.0475 Y-0.9863 I32.9666 J1.7215
G01 X-62.0555 Y-0.1969
G01 X-62.0580 Y0.7302
G01 X-62.0576 Y1.3560
G01 X-62.0555 Y1.9022
G02 X-62.0261 Y3.4723 I42.4474 J-0.0090
G02 X-55.4725 Y23.1690 I41.5006 J-2.8698
G02 X-52.7622 Y27.0441 I38.6735 J-24.1635
G02 X-37.3104 Y40.5266 I44.4284 J-35.3219
G02 X-35.7762 Y38.6409 I-23.6918 J-20.8421
G01 X-35.9329 Y38.5153
G00 Z1.0000
G00 X-35.6143 Y-37.0847
G00 Z-1.5000
G01 Z-3.0000 F600
G01 X-39.9593 F1200
G01 Y-35.2847
G01 X-42.4827
G01 X-34.0573
G01 X-34.6201 Y-33.4847
G01 X-44.7406
G01 Y-31.6847
G01 X-46.7806
G01 X-37.1689
G01 X-39.4500
G01 Y-29.8847
G01 X-48.6361
G01 X-50.3431 Y-28.0847
G01 X-41.4731
G01 X-43.3116 Y-26.2847
G01 X-51.8943
G01 X-53.2913 Y-24.4847
G01 X-44.9321
G01 X-46.4084 Y-22.6847
G01 X-54.5621
G01 X-55.7134 Y-20.8847
G01 X-47.7342
G01 X-48.9217 Y-19.0847
G01 X-56.7612
G01 X-57.7015 Y-17.2847
G01 X-49.9803
G01 X-50.9176 Y-15.4847
G01 X-58.5233
G01 X-59.2568 Y-13.6847
G01 X-51.7436
G01 X-52.4646 Y-11.8847
G01 X-59.8829
G01 X-60.4320 Y-10.0847
G01 X-53.0835
G01 X-53.5969 Y-8.2847
G01 X-60.8988
G01 X-61.2710 Y-6.4847
G01 X-54.0098
G01 X-54.3257 Y-4.6847
G01 X-61.5492
G01 X-61.7633 Y-2.8847
G01 X-54.5477
G01 X-54.6807 Y-1.0847
G01 X-61.8456
G01 X-61.8573 Y0.7153
G01 X-54.7269
G01 X-54.6935 Y2.5153
G01 X-61.8491
G01 X-61.7704 Y4.3153
G01 X-54.5741
G01 X-54.3520 Y6.1153
G01 X-61.5605
G01 X-61.2777 Y7.9153
G01 X-54.0267
G01 X-53.6127 Y9.7153
G01 X-60.9170
G01 X-60.4679 Y11.5153
G01 X-53.1094
G01 X-52.4927 Y13.3153
G01 X-59.9260
G01 X-59.2877 Y15.1153
G01 X-51.7808
G01 X-50.9639 Y16.9153
G01 X-58.5676
G01 X-57.7449 Y18.7153
G01 X-50.0236
G01 X-48.9761 Y20.5153
G01 X-56.8082
G01 X-55.7645 Y22.3153
G01 X-47.7874
G01 X-46.4760 Y24.1153
G01 X-54.6219
G01 X-53.3673 Y25.9153
G01 X-45.0062
G01 X-43.3802 Y27.7153
G01 X-51.9685
G01 X-50.4283 Y29.5153
G01 X-41.5800
G01 Y31.3153
G01 X-39.5628
G01 X-48.7401
G01 X-46.8890 Y33.1153
G01 X-37.3098
G01 Y34.9153
G01 X-34.7711
G01 X-44.8522
G01 X-42.6064
G01 Y36.7153
G01 X-34.4860
G01 X-35.9329 Y38.5153
G01 X-40.1103
G00 Z1.0000
G00 Z-1.5000
G01 Z-3.0000 F600
G01 X-40.2219 Y38.6812 F1200
G02 X-37.2892 Y40.5226 I22.5569 J-32.6699
G03 X-33.3340 Y35.6060 I1325.7355 J1062.4166
G03 X-46.3624 Y23.9370 I25.8436 J-41.9619
G03 X-50.8185 Y16.7596 I32.5309 J-25.1689
G03 X-54.4509 Y3.3363 I33.1301 J-16.1684
G03 X-54.5248 Y1.3078 I37.8080 J-2.3932
G01 X-54.5276 Y0.7818
G01 X-54.5186 Y-0.0318
G03 X-52.9102 Y-9.9711 I35.5691 J0.6563
G03 X-43.8148 Y-25.4395 I39.1168 J12.5925
G01 X-42.8852 Y-26.4541
G03 X-32.9646 Y-34.3107 I38.2264 J38.0771
G02 X-37.1166 Y-39.1118 I-184.9775 J155.7742
G01 X-37.1304 Y-39.1242
G02 X-47.7666 Y-31.0281 I29.4352 J49.7050
G02 X-58.1610 Y-16.7831 I33.3667 J35.2620
G02 X-59.3739 Y-13.9438 I34.3282 J16.3434
G02 X-62.0053 Y-2.2836 I37.9680 J14.6954
G02 X-62.0475 Y-0.9863 I32.9666 J1.7215
G01 X-62.0555 Y-0.1969
G01 X-62.0580 Y0.7302
G01 X-62.0576 Y1.3560
G01 X-62.0555 Y1.9022
G02 X-62.0261 Y3.4723 I42.4474 J-0.0090
G02 X-55.4725 Y23.1690 I41.5006 J-2.8698
G02 X-53.4383 Y26.1570 I40.8369 J-25.6136
G02 X-40.2219 Y38.6812 I44.5652 J-33.7928
G01 X-40.1103 Y38.5153
G00 Z1.0000


(Nr. 15: Ausschnitt 32)
G00 X-64.6722 Y50.2558 Z1.0000
G00 Z0.5000
G01 Z-1.0000 F600
G01 X-66.8954 F1200
G01 Y52.0558
G01 X-64.6722
G01 Y53.8558
G01 X-66.8954
G01 Y55.6558
G01 X-64.6722
G01 Y57.4558
G01 X-66.8954
G01 Y59.2558
G01 X-64.6351
G01 Y61.0558
G01 X-66.8954
G01 X-55.3625
G01 X-64.3073
G01 Y62.8558
G01 X-66.8954
G01 Y64.6558
G01 X-64.6722
G01 Y66.4558
G01 X-66.8954
G01 Y68.2558
G01 X-64.6722
G01 X-64.6687 Y70.0558
G01 X-66.8954
G01 Y71.8558
G01 X-53.9059
G00 Z1.0000
G00 Z0.5000
G01 Z-1.0000 F600
G01 X-53.7059 F1200
G01 Y70.9861
G01 X-63.4522
G03 X-64.4722 Y69.9861 I-0.0197 J-1.0001
G01 Y63.7359
G01 X-64.4697 Y63.6452
G03 X-63.4722 Y62.7159 I0.9975 J0.0707
G01 X-55.1625
G01 Y59.9658
G01 X-63.4522
G03 X-64.4722 Y58.9658 I-0.0197 J-1.0001
G01 Y48.3755
G01 X-67.0954
G01 Y73.7362
G01 X-53.7059
G01 Y71.8558
G01 X-53.9059
G00 Z1.0000
G00 X-64.6722 Y50.2558
G00 Z-0.5000
G01 Z-2.0000 F600
G01 X-66.8954 F1200
G01 Y52.0558
G01 X-64.6722
G01 Y53.8558
G01 X-66.8954
G01 Y55.6558
G01 X-64.6722
G01 Y57.4558
G01 X-66.8954
G01 Y59.2558
G01 X-64.6351
G01 Y61.0558
G01 X-66.8954
G01 X-55.3625
G01 X-64.3073
G01 Y62.8558
G01 X-66.8954
G01 Y64.6558
G01 X-64.6722
G01 Y66.4558
G01 X-66.8954
G01 Y68.2558
G01 X-64.6722
G01 X-64.6687 Y70.0558
G01 X-66.8954
G01 Y71.8558
G01 X-53.9059
G00 Z1.0000
G00 Z-0.5000
G01 Z-2.0000 F600
G01 X-53.7059 F1200
G01 Y70.9861
G01 X-63.4522
G03 X-64.4722 Y69.9861 I-0.0197 J-1.0001
G01 Y63.7359
G01 X-64.4697 Y63.6452
G03 X-63.4722 Y62.7159 I0.9975 J0.0707
G01 X-55.1625
G01 Y59.9658
G01 X-63.4522
G03 X-64.4722 Y58.9658 I-0.0197 J-1.0001
G01 Y48.3755
G01 X-67.0954
G01 Y73.7362
G01 X-53.7059
G01 Y71.8558
G01 X-53.9059
G00 Z1.0000
G00 X-64.6722 Y50.2558
G00 Z-1.5000
G01 Z-3.0000 F600
G01 X-66.8954 F1200
G01 Y52.0558
G01 X-64.6722
G01 Y53.8558
G01 X-66.8954
G01 Y55.6558
G01 X-64.6722
G01 Y57.4558
G01 X-66.8954
G01 Y59.2558
G01 X-64.6351
G01 Y61.0558
G01 X-66.8954
G01 X-55.3625
G01 X-64.3073
G01 Y62.8558
G01 X-66.8954
G01 Y64.6558
G01 X-64.6722
G01 Y66.4558
G01 X-66.8954
G01 Y68.2558
G01 X-64.6722
G01 X-64.6687 Y70.0558
G01 X-66.8954
G01 Y71.8558
G01 X-53.9059
G00 Z1.0000
G00 Z-1.5000
G01 Z-3.0000 F600
G01 X-53.7059 F1200
G01 Y70.9861
G01 X-63.4522
G03 X-64.4722 Y69.9861 I-0.0197 J-1.0001
G01 Y63.7359
G01 X-64.4697 Y63.6452
G03 X-63.4722 Y62.7159 I0.9975 J0.0707
G01 X-55.1625
G01 Y59.9658
G01 X-63.4522
G03 X-64.4722 Y58.9658 I-0.0197 J-1.0001
G01 Y48.3755
G01 X-67.0954
G01 Y73.7362
G01 X-53.7059
G01 Y71.8558
G01 X-53.9059
G00 Z1.0000


(Nr. 16: Ausschnitt 33)
G00 X-48.0855 Y50.3047 Z1.0000
G00 Z0.5000
G01 Z-1.0000 F600
G01 X-46.0514 F1200
G01 X-46.0489 Y52.1047
G01 X-48.0856
G01 X-48.0857 Y53.9047
G01 X-46.0364
G01 X-46.0076 Y55.7047
G01 X-48.0857
G01 X-48.0858 Y57.5047
G01 X-45.9516
G01 X-45.8233 Y59.3047
G01 X-48.0858
G01 X-48.0859 Y61.1047
G01 X-45.4734
G01 X-44.5300 Y62.9047
G01 X-48.0859
G01 X-48.0860 Y64.7047
G01 X-46.3380
G00 Z1.0000
G00 X-43.7674
G00 Z0.5000
G01 Z-1.0000 F600
G01 X-40.5508 F1200
G00 Z1.0000
G00 Z0.5000
G01 Z-1.0000 F600
G01 X-40.3585 Y64.6487 F1200
G02 X-40.7242 Y63.4647 I-23.9707 J6.7558
G03 X-44.5413 Y62.5840 I-1.3944 J-2.6688
G03 X-44.9125 Y61.9968 I2.8621 J-2.2199
G03 X-45.6751 Y58.7877 I8.1855 J-3.6404
G03 X-45.8258 Y54.7291 I58.1422 J-4.1909
G03 X-45.8506 Y51.6915 I239.3838 J-3.4714
G01 X-45.8523 Y48.3755
G01 X-48.2855
G01 X-48.2860 Y66.1993
G01 X-46.1585
G01 X-46.1362 Y64.6416
G03 X-44.2533 Y64.2309 I0.9984 J0.0560
G02 X-42.8482 Y66.2156 I6.1058 J-2.8330
G02 X-42.3184 Y66.5375 I1.1440 J-1.2860
G02 X-39.9216 Y66.1840 I0.7767 J-3.0364
G02 X-40.3585 Y64.6487 I-67.1721 J18.2824
G01 X-40.5508 Y64.7047
G00 Z1.0000
G00 X-46.0514 Y50.3047
G00 Z-0.5000
G01 Z-2.0000 F600
G01 X-48.0855 F1200
G01 X-48.0856 Y52.1047
G01 X-46.0489
G01 X-46.0364 Y53.9047
G01 X-48.0857
G01 Y55.7047
G01 X-46.0076
G01 X-45.9516 Y57.5047
G01 X-48.0858
G01 Y59.3047
G01 X-45.8233
G01 X-45.4734 Y61.1047
G01 X-48.0859
G01 Y62.9047
G01 X-44.5300
G01 X-46.3380 Y64.7047
G01 X-48.0860
G00 Z1.0000
G00 X-43.7674
G00 Z-0.5000
G01 Z-2.0000 F600
G01 X-40.5508 F1200
G00 Z1.0000
G00 Z-0.5000
G01 Z-2.0000 F600
G01 X-40.3585 Y64.6487 F1200
G02 X-40.7242 Y63.4647 I-23.9707 J6.7558
G03 X-44.5413 Y62.5840 I-1.3944 J-2.6688
G03 X-44.9125 Y61.9968 I2.8621 J-2.2199
G03 X-45.6751 Y58.7877 I8.1855 J-3.6404
G03 X-45.8258 Y54.7291 I58.1422 J-4.1909
G03 X-45.8506 Y51.6915 I239.3838 J-3.4714
G01 X-45.8523 Y48.3755
G01 X-48.2855
G01 X-48.2860 Y66.1993
G01 X-46.1585
G01 X-46.1362 Y64.6416
G03 X-44.2533 Y64.2309 I0.9984 J0.0560
G02 X-42.8482 Y66.2156 I6.1058 J-2.8330
G02 X-42.3184 Y66.5375 I1.1440 J-1.2860
G02 X-39.9216 Y66.1840 I0.7767 J-3.0364
G02 X-40.3585 Y64.6487 I-67.1721 J18.2824
G01 X-40.5508 Y64.7047
G00 Z1.0000
G00 X-46.0514 Y50.3047
G00 Z-1.5000
G01 Z-3.0000 F600
G01 X-48.0855 F1200
G01 X-48.0856 Y52.1047
G01 X-46.0489
G01 X-46.0364 Y53.9047
G01 X-48.0857
G01 Y55.7047
G01 X-46.0076
G01 X-45.9516 Y57.5047
G01 X-48.0858
G01 Y59.3047
G01 X-45.8233
G01 X-45.4734 Y61.1047
G01 X-48.0859
G01 Y62.9047
G01 X-44.5300
G01 X-46.3380 Y64.7047
G01 X-48.0860
G00 Z1.0000
G00 X-43.7674
G00 Z-1.5000
G01 Z-3.0000 F600
G01 X-40.5508 F1200
G00 Z1.0000
G00 Z-1.5000
G01 Z-3.0000 F600
G01 X-40.3585 Y64.6487 F1200
G02 X-40.7242 Y63.4647 I-23.9707 J6.7558
G03 X-44.5413 Y62.5840 I-1.3944 J-2.6688
G03 X-44.9125 Y61.9968 I2.8621 J-2.2199
G03 X-45.6751 Y58.7877 I8.1855 J-3.6404
G03 X-45.8258 Y54.7291 I58.1422 J-4.1909
G03 X-45.8506 Y51.6915 I239.3838 J-3.4714
G01 X-45.8523 Y48.3755
G01 X-48.2855
G01 X-48.2860 Y66.1993
G01 X-46.1585
G01 X-46.1362 Y64.6416
G03 X-44.2533 Y64.2309 I0.9984 J0.0560
G02 X-42.8482 Y66.2156 I6.1058 J-2.8330
G02 X-42.3184 Y66.5375 I1.1440 J-1.2860
G02 X-39.9216 Y66.1840 I0.7767 J-3.0364
G02 X-40.3585 Y64.6487 I-67.1721 J18.2824
G01 X-40.5508 Y64.7047
G00 Z1.0000


(Nr. 17: Ausschnitt 34)
G00 X-31.9805 Y48.2848 Z1.0000
G00 Z0.5000
G01 Z-1.0000 F600
G01 X-28.7938 F1200
G01 X-31.7349
G01 Y50.0848
G01 X-35.0075
G01 X-36.1217 Y51.8848
G01 X-33.8867
G01 X-34.6750 Y53.6848
G01 X-36.7165
G01 X-36.9970 Y55.4848
G01 X-34.9602
G01 Y57.2848
G01 X-37.0537
G01 X-24.2035
G01 X-35.0504
G01 Y59.0848
G01 X-36.9750
G01 X-36.6499 Y60.8848
G01 X-34.8694
G01 X-34.1990 Y62.6848
G01 X-36.0261
G01 X-34.8983 Y64.4848
G01 X-32.2598
G00 Z1.0000
G00 X-28.9018 Y48.2848
G00 Z0.5000
G01 Z-1.0000 F600
G01 Y50.0848 F1200
G01 X-25.8694
G01 X-24.8077 Y51.8848
G01 X-27.0138
G00 Z1.0000
G00 X-26.0468 Y57.2848
G00 Z0.5000
G01 Z-1.0000 F600
G01 Y59.0848 F1200
G01 X-24.3251
G01 X-24.6538 Y60.8848
G01 X-26.2180
G01 X-26.9037 Y62.6848
G01 X-25.2447
G01 X-26.3249 Y64.4848
G01 X-28.8319
G00 Z1.0000
G00 X-29.2191 Y66.2848
G00 Z0.5000
G01 Z-1.0000 F600
G01 X-32.2225 F1200
G00 Z1.0000
G00 X-32.2598 Y64.4848
G00 Z0.5000
G01 Z-1.0000 F600
G01 X-31.6547 Y64.4960 F1200
G03 X-34.3374 Y61.9546 I1.2574 J-4.0140
G03 X-34.8111 Y59.7906 I6.2153 J-2.4943
G01 X-34.8506 Y59.0846
G01 X-34.8512 Y58.9846
G03 X-33.8784 Y58.0295 I0.9990 J0.0445
G01 X-27.2468 Y58.0291
G03 X-26.2613 Y58.8592 I0.0000 J1.0000
G03 X-26.9493 Y62.3503 I-6.7711 J0.4789
G03 X-31.6547 Y64.4960 I-3.5944 J-1.6500
G01 X-32.2598 Y64.4848
G00 Z1.0000
G00 X-32.2225 Y66.2848
G00 Z0.5000
G01 Z-1.0000 F600
G01 X-33.0383 Y66.2007 F1200
G02 X-30.9316 Y66.6254 I1.9186 J-4.0793
G01 X-30.6211 Y66.6281
G02 X-25.5224 Y63.6841 I0.1636 J-5.6038
G01 X-25.2920 Y63.2602
G01 X-25.0741 Y62.7964
G02 X-24.0284 Y57.8041 I-13.3338 J-5.3984
G02 X-23.9962 Y56.7357 I-8.7772 J-0.7992
G03 X-33.7368 Y56.7141 I-3.5698 J-585.6475
G03 X-34.7667 Y55.7891 I-0.0266 J-1.0062
G01 X-34.7696 Y55.6892
G03 X-34.6225 Y54.4381 I10.2147 J0.5668
G03 X-32.7047 Y50.8734 I5.4493 J0.6335
G03 X-31.6635 Y50.2715 I2.5381 J3.1888
G03 X-27.3527 Y51.7007 I1.3458 J3.1567
G03 X-26.8818 Y52.6519 I-4.5150 J2.8274
G02 X-24.4694 Y52.1820 I-7.6512 J-45.7146
G02 X-25.1621 Y50.7438 I-8.6744 J3.2919
G02 X-30.0785 Y47.9450 I-4.7941 J2.7038
G02 X-30.8038 Y47.9479 I-0.3093 J12.9936
G02 X-34.6895 Y49.4468 I-0.0265 J5.7178
G02 X-35.8022 Y50.8501 I5.1859 J5.2545
G02 X-37.2087 Y55.6572 I9.2212 J5.3072
G02 X-37.2535 Y57.1192 I28.3825 J1.6014
G01 X-37.2538 Y57.3700
G01 X-37.2520 Y57.6170
G01 X-37.2482 Y57.8579
G02 X-36.0629 Y63.0698 I12.4120 J-0.0820
G02 X-35.4434 Y64.1047 I7.3623 J-3.7041
G02 X-33.1073 Y66.1694 I4.9489 J-3.2456
G01 X-33.0383 Y66.2007
G01 X-32.2225 Y66.2848
G00 Z1.0000
G00 X-31.9805 Y48.2848
G00 Z-0.5000
G01 Z-2.0000 F600
G01 X-28.7938 F1200
G01 X-31.7349
G01 Y50.0848
G01 X-35.0075
G01 X-36.1217 Y51.8848
G01 X-33.8867
G01 X-34.6750 Y53.6848
G01 X-36.7165
G01 X-36.9970 Y55.4848
G01 X-34.9602
G01 Y57.2848
G01 X-37.0537
G01 X-24.2035
G01 X-35.0504
G01 Y59.0848
G01 X-36.9750
G01 X-36.6499 Y60.8848
G01 X-34.8694
G01 X-34.1990 Y62.6848
G01 X-36.0261
G01 X-34.8983 Y64.4848
G01 X-32.2598
G00 Z1.0000
G00 X-28.9018 Y48.2848
G00 Z-0.5000
G01 Z-2.0000 F600
G01 Y50.0848 F1200
G01 X-25.8694
G01 X-24.8077 Y51.8848
G01 X-27.0138
G00 Z1.0000
G00 X-26.0468 Y57.2848
G00 Z-0.5000
G01 Z-2.0000 F600
G01 Y59.0848 F1200
G01 X-24.3251
G01 X-24.6538 Y60.8848
G01 X-26.2180
G01 X-26.9037 Y62.6848
G01 X-25.2447
G01 X-26.3249 Y64.4848
G01 X-28.8319
G00 Z1.0000
G00 X-29.2191 Y66.2848
G00 Z-0.5000
G01 Z-2.0000 F600
G01 X-32.2225 F1200
G00 Z1.0000
G00 X-32.2598 Y64.4848
G00 Z-0.5000
G01 Z-2.0000 F600
G01 X-31.6547 Y64.4960 F1200
G03 X-34.3374 Y61.9546 I1.2574 J-4.0140
G03 X-34.8111 Y59.7906 I6.2153 J-2.4943
G01 X-34.8506 Y59.0846
G01 X-34.8512 Y58.9846
G03 X-33.8784 Y58.0295 I0.9990 J0.0445
G01 X-27.2468 Y58.0291
G03 X-26.2613 Y58.8592 I0.0000 J1.0000
G03 X-26.9493 Y62.3503 I-6.7711 J0.4789
G03 X-31.6547 Y64.4960 I-3.5944 J-1.6500
G01 X-32.2598 Y64.4848
G00 Z1.0000
G00 X-32.2225 Y66.2848
G00 Z-0.5000
G01 Z-2.0000 F600
G01 X-33.0383 Y66.2007 F1200
G02 X-30.9316 Y66.6254 I1.9186 J-4.0793
G01 X-30.6211 Y66.6281
G02 X-25.5224 Y63.6841 I0.1636 J-5.6038
G01 X-25.2920 Y63.2602
G01 X-25.0741 Y62.7964
G02 X-24.0284 Y57.8041 I-13.3338 J-5.3984
G02 X-23.9962 Y56.7357 I-8.7772 J-0.7992
G03 X-33.7368 Y56.7141 I-3.5698 J-585.6475
G03 X-34.7667 Y55.7891 I-0.0266 J-1.0062
G01 X-34.7696 Y55.6892
G03 X-34.6225 Y54.4381 I10.2147 J0.5668
G03 X-32.7047 Y50.8734 I5.4493 J0.6335
G03 X-31.6635 Y50.2715 I2.5381 J3.1888
G03 X-27.3527 Y51.7007 I1.3458 J3.1567
G03 X-26.8818 Y52.6519 I-4.5150 J2.8274
G02 X-24.4694 Y52.1820 I-7.6512 J-45.7146
G02 X-25.1621 Y50.7438 I-8.6744 J3.2919
G02 X-30.0785 Y47.9450 I-4.7941 J2.7038
G02 X-30.8038 Y47.9479 I-0.3093 J12.9936
G02 X-34.6895 Y49.4468 I-0.0265 J5.7178
G02 X-35.8022 Y50.8501 I5.1859 J5.2545
G02 X-37.2087 Y55.6572 I9.2212 J5.3072
G02 X-37.2535 Y57.1192 I28.3825 J1.6014
G01 X-37.2538 Y57.3700
G01 X-37.2520 Y57.6170
G01 X-37.2482 Y57.8579
G02 X-36.0629 Y63.0698 I12.4120 J-0.0820
G02 X-35.4434 Y64.1047 I7.3623 J-3.7041
G02 X-33.1073 Y66.1694 I4.9489 J-3.2456
G01 X-33.0383 Y66.2007
G01 X-32.2225 Y66.2848
G00 Z1.0000
G00 X-31.9805 Y48.2848
G00 Z-1.5000
G01 Z-3.0000 F600
G01 X-28.7938 F1200
G01 X-31.7349
G01 Y50.0848
G01 X-35.0075
G01 X-36.1217 Y51.8848
G01 X-33.8867
G01 X-34.6750 Y53.6848
G01 X-36.7165
G01 X-36.9970 Y55.4848
G01 X-34.9602
G01 Y57.2848
G01 X-37.0537
G01 X-24.2035
G01 X-35.0504
G01 Y59.0848
G01 X-36.9750
G01 X-36.6499 Y60.8848
G01 X-34.8694
G01 X-34.1990 Y62.6848
G01 X-36.0261
G01 X-34.8983 Y64.4848
G01 X-32.2598
G00 Z1.0000
G00 X-28.9018 Y48.2848
G00 Z-1.5000
G01 Z-3.0000 F600
G01 Y50.0848 F1200
G01 X-25.8694
G01 X-24.8077 Y51.8848
G01 X-27.0138
G00 Z1.0000
G00 X-26.0468 Y57.2848
G00 Z-1.5000
G01 Z-3.0000 F600
G01 Y59.0848 F1200
G01 X-24.3251
G01 X-24.6538 Y60.8848
G01 X-26.2180
G01 X-26.9037 Y62.6848
G01 X-25.2447
G01 X-26.3249 Y64.4848
G01 X-28.8319
G00 Z1.0000
G00 X-29.2191 Y66.2848
G00 Z-1.5000
G01 Z-3.0000 F600
G01 X-32.2225 F1200
G00 Z1.0000
G00 X-32.2598 Y64.4848
G00 Z-1.5000
G01 Z-3.0000 F600
G01 X-31.6547 Y64.4960 F1200
G03 X-34.3374 Y61.9546 I1.2574 J-4.0140
G03 X-34.8111 Y59.7906 I6.2153 J-2.4943
G01 X-34.8506 Y59.0846
G01 X-34.8512 Y58.9846
G03 X-33.8784 Y58.0295 I0.9990 J0.0445
G01 X-27.2468 Y58.0291
G03 X-26.2613 Y58.8592 I0.0000 J1.0000
G03 X-26.9493 Y62.3503 I-6.7711 J0.4789
G03 X-31.6547 Y64.4960 I-3.5944 J-1.6500
G01 X-32.2598 Y64.4848
G00 Z1.0000
G00 X-32.2225 Y66.2848
G00 Z-1.5000
G01 Z-3.0000 F600
G01 X-33.0383 Y66.2007 F1200
G02 X-30.9316 Y66.6254 I1.9186 J-4.0793
G01 X-30.6211 Y66.6281
G02 X-25.5224 Y63.6841 I0.1636 J-5.6038
G01 X-25.2920 Y63.2602
G01 X-25.0741 Y62.7964
G02 X-24.0284 Y57.8041 I-13.3338 J-5.3984
G02 X-23.9962 Y56.7357 I-8.7772 J-0.7992
G03 X-33.7368 Y56.7141 I-3.5698 J-585.6475
G03 X-34.7667 Y55.7891 I-0.0266 J-1.0062
G01 X-34.7696 Y55.6892
G03 X-34.6225 Y54.4381 I10.2147 J0.5668
G03 X-32.7047 Y50.8734 I5.4493 J0.6335
G03 X-31.6635 Y50.2715 I2.5381 J3.1888
G03 X-27.3527 Y51.7007 I1.3458 J3.1567
G03 X-26.8818 Y52.6519 I-4.5150 J2.8274
G02 X-24.4694 Y52.1820 I-7.6512 J-45.7146
G02 X-25.1621 Y50.7438 I-8.6744 J3.2919
G02 X-30.0785 Y47.9450 I-4.7941 J2.7038
G02 X-30.8038 Y47.9479 I-0.3093 J12.9936
G02 X-34.6895 Y49.4468 I-0.0265 J5.7178
G02 X-35.8022 Y50.8501 I5.1859 J5.2545
G02 X-37.2087 Y55.6572 I9.2212 J5.3072
G02 X-37.2535 Y57.1192 I28.3825 J1.6014
G01 X-37.2538 Y57.3700
G01 X-37.2520 Y57.6170
G01 X-37.2482 Y57.8579
G02 X-36.0629 Y63.0698 I12.4120 J-0.0820
G02 X-35.4434 Y64.1047 I7.3623 J-3.7041
G02 X-33.1073 Y66.1694 I4.9489 J-3.2456
G01 X-33.0383 Y66.2007
G01 X-32.2225 Y66.2848
G00 Z1.0000


(Nr. 18: Ausschnitt 35)
G00 X-14.6277 Y48.2847 Z1.0000
G00 Z0.5000
G01 Z-1.0000 F600
G01 X-11.4412 F1200
G01 X-14.3822
G01 Y50.0847
G01 X-17.6547
G01 X-18.7690 Y51.8847
G01 X-16.5340
G01 X-17.3224 Y53.6847
G01 X-19.3637
G01 X-19.6442 Y55.4847
G01 X-17.6076
G01 Y57.2847
G01 X-19.7010
G01 X-6.8508
G01 X-17.6976
G01 Y59.0847
G01 X-19.6223
G01 X-19.2972 Y60.8847
G01 X-17.5167
G01 X-16.8462 Y62.6847
G01 X-18.6734
G01 X-17.5456 Y64.4847
G01 X-14.9070
G00 Z1.0000
G00 X-11.5492 Y48.2847
G00 Z0.5000
G01 Z-1.0000 F600
G01 Y50.0847 F1200
G01 X-8.5168
G01 X-7.4550 Y51.8847
G01 X-9.6611
G00 Z1.0000
G00 X-8.6940 Y57.2847
G00 Z0.5000
G01 Z-1.0000 F600
G01 Y59.0847 F1200
G01 X-6.9724
G01 X-7.3011 Y60.8847
G01 X-8.8652
G01 X-9.5509 Y62.6847
G01 X-7.8920
G01 X-8.9723 Y64.4847
G01 X-11.4791
G00 Z1.0000
G00 X-11.8664 Y66.2847
G00 Z0.5000
G01 Z-1.0000 F600
G01 X-14.8698 F1200
G00 Z1.0000
G00 X-14.9070 Y64.4847
G00 Z0.5000
G01 Z-1.0000 F600
G01 X-14.3019 Y64.4960 F1200
G03 X-16.9847 Y61.9545 I1.2575 J-4.0140
G03 X-17.4584 Y59.7906 I6.2154 J-2.4943
G01 X-17.4979 Y59.0846
G01 X-17.4984 Y58.9846
G03 X-16.5257 Y58.0295 I0.9990 J0.0445
G01 X-9.8940 Y58.0291
G03 X-8.9085 Y58.8592 I0.0000 J1.0000
G03 X-9.5966 Y62.3503 I-6.7712 J0.4789
G03 X-14.3019 Y64.4960 I-3.5944 J-1.6500
G01 X-14.9070 Y64.4847
G00 Z1.0000
G00 X-14.8698 Y66.2847
G00 Z0.5000
G01 Z-1.0000 F600
G01 X-15.6856 Y66.2007 F1200
G02 X-13.5790 Y66.6254 I1.9185 J-4.0794
G01 X-13.2684 Y66.6281
G02 X-8.1697 Y63.6841 I0.1636 J-5.6038
G01 X-7.9393 Y63.2602
G01 X-7.7214 Y62.7964
G02 X-6.6758 Y57.8041 I-13.3338 J-5.3984
G02 X-6.6436 Y56.7357 I-8.7772 J-0.7992
G03 X-16.3842 Y56.7141 I-3.5698 J-585.6475
G03 X-17.4141 Y55.7891 I-0.0266 J-1.0062
G01 X-17.4169 Y55.6892
G03 X-17.2698 Y54.4381 I10.2150 J0.5668
G03 X-15.3520 Y50.8734 I5.4493 J0.6335
G03 X-14.3109 Y50.2715 I2.5381 J3.1888
G03 X-10.0001 Y51.7007 I1.3458 J3.1568
G03 X-9.5291 Y52.6519 I-4.5155 J2.8277
G02 X-7.1167 Y52.1820 I-7.6493 J-45.7049
G02 X-7.8094 Y50.7438 I-8.4707 J3.1939
G02 X-12.5833 Y47.9491 I-4.7774 J2.6861
G02 X-13.5900 Y47.9533 I-0.4502 J12.9308
G02 X-17.3368 Y49.4467 I0.0942 J5.6830
G02 X-18.4572 Y50.8626 I5.1904 J5.2585
G02 X-19.8559 Y55.6572 I9.2376 J5.2962
G02 X-19.9007 Y57.1192 I28.3891 J1.6019
G01 X-19.9011 Y57.3700
G01 X-19.8993 Y57.6170
G01 X-19.8954 Y57.8579
G02 X-18.7102 Y63.0698 I12.4106 J-0.0815
G02 X-18.0907 Y64.1047 I7.3622 J-3.7040
G02 X-15.7547 Y66.1694 I4.9489 J-3.2456
G01 X-15.6856 Y66.2007
G01 X-14.8698 Y66.2847
G00 Z1.0000
G00 X-14.6277 Y48.2847
G00 Z-0.5000
G01 Z-2.0000 F600
G01 X-11.4412 F1200
G01 X-14.3822
G01 Y50.0847
G01 X-17.6547
G01 X-18.7690 Y51.8847
G01 X-16.5340
G01 X-17.3224 Y53.6847
G01 X-19.3637
G01 X-19.6442 Y55.4847
G01 X-17.6076
G01 Y57.2847
G01 X-19.7010
G01 X-6.8508
G01 X-17.6976
G01 Y59.0847
G01 X-19.6223
G01 X-19.2972 Y60.8847
G01 X-17.5167
G01 X-16.8462 Y62.6847
G01 X-18.6734
G01 X-17.5456 Y64.4847
G01 X-14.9070
G00 Z1.0000
G00 X-11.5492 Y48.2847
G00 Z-0.5000
G01 Z-2.0000 F600
G01 Y50.0847 F1200
G01 X-8.5168
G01 X-7.4550 Y51.8847
G01 X-9.6611
G00 Z1.0000
G00 X-8.6940 Y57.2847
G00 Z-0.5000
G01 Z-2.0000 F600
G01 Y59.0847 F1200
G01 X-6.9724
G01 X-7.3011 Y60.8847
G01 X-8.8652
G01 X-9.5509 Y62.6847
G01 X-7.8920
G01 X-8.9723 Y64.4847
G01 X-11.4791
G00 Z1.0000
G00 X-11.8664 Y66.2847
G00 Z-0.5000
G01 Z-2.0000 F600
G01 X-14.8698 F1200
G00 Z1.0000
G00 X-14.9070 Y64.4847
G00 Z-0.5000
G01 Z-2.0000 F600
G01 X-14.3019 Y64.4960 F1200
G03 X-16.9847 Y61.9545 I1.2575 J-4.0140
G03 X-17.4584 Y59.7906 I6.2154 J-2.4943
G01 X-17.4979 Y59.0846
G01 X-17.4984 Y58.9846
G03 X-16.5257 Y58.0295 I0.9990 J0.0445
G01 X-9.8940 Y58.0291
G03 X-8.9085 Y58.8592 I0.0000 J1.0000
G03 X-9.5966 Y62.3503 I-6.7712 J0.4789
G03 X-14.3019 Y64.4960 I-3.5944 J-1.6500
G01 X-14.9070 Y64.4847
G00 Z1.0000
G00 X-14.8698 Y66.2847
G00 Z-0.5000
G01 Z-2.0000 F600
G01 X-15.6856 Y66.2007 F1200
G02 X-13.5790 Y66.6254 I1.9185 J-4.0794
G01 X-13.2684 Y66.6281
G02 X-8.1697 Y63.6841 I0.1636 J-5.6038
G01 X-7.9393 Y63.2602
G01 X-7.7214 Y62.7964
G02 X-6.6758 Y57.8041 I-13.3338 J-5.3984
G02 X-6.6436 Y56.7357 I-8.7772 J-0.7992
G03 X-16.3842 Y56.7141 I-3.5698 J-585.6475
G03 X-17.4141 Y55.7891 I-0.0266 J-1.0062
G01 X-17.4169 Y55.6892
G03 X-17.2698 Y54.4381 I10.2150 J0.5668
G03 X-15.3520 Y50.8734 I5.4493 J0.6335
G03 X-14.3109 Y50.2715 I2.5381 J3.1888
G03 X-10.0001 Y51.7007 I1.3458 J3.1568
G03 X-9.5291 Y52.6519 I-4.5155 J2.8277
G02 X-7.1167 Y52.1820 I-7.6493 J-45.7049
G02 X-7.8094 Y50.7438 I-8.4707 J3.1939
G02 X-12.5833 Y47.9491 I-4.7774 J2.6861
G02 X-13.5900 Y47.9533 I-0.4502 J12.9308
G02 X-17.3368 Y49.4467 I0.0942 J5.6830
G02 X-18.4572 Y50.8626 I5.1904 J5.2585
G02 X-19.8559 Y55.6572 I9.2376 J5.2962
G02 X-19.9007 Y57.1192 I28.3891 J1.6019
G01 X-19.9011 Y57.3700
G01 X-19.8993 Y57.6170
G01 X-19.8954 Y57.8579
G02 X-18.7102 Y63.0698 I12.4106 J-0.0815
G02 X-18.0907 Y64.1047 I7.3622 J-3.7040
G02 X-15.7547 Y66.1694 I4.9489 J-3.2456
G01 X-15.6856 Y66.2007
G01 X-14.8698 Y66.2847
G00 Z1.0000
G00 X-14.6277 Y48.2847
G00 Z-1.5000
G01 Z-3.0000 F600
G01 X-11.4412 F1200
G01 X-14.3822
G01 Y50.0847
G01 X-17.6547
G01 X-18.7690 Y51.8847
G01 X-16.5340
G01 X-17.3224 Y53.6847
G01 X-19.3637
G01 X-19.6442 Y55.4847
G01 X-17.6076
G01 Y57.2847
G01 X-19.7010
G01 X-6.8508
G01 X-17.6976
G01 Y59.0847
G01 X-19.6223
G01 X-19.2972 Y60.8847
G01 X-17.5167
G01 X-16.8462 Y62.6847
G01 X-18.6734
G01 X-17.5456 Y64.4847
G01 X-14.9070
G00 Z1.0000
G00 X-11.5492 Y48.2847
G00 Z-1.5000
G01 Z-3.0000 F600
G01 Y50.0847 F1200
G01 X-8.5168
G01 X-7.4550 Y51.8847
G01 X-9.6611
G00 Z1.0000
G00 X-8.6940 Y57.2847
G00 Z-1.5000
G01 Z-3.0000 F600
G01 Y59.0847 F1200
G01 X-6.9724
G01 X-7.3011 Y60.8847
G01 X-8.8652
G01 X-9.5509 Y62.6847
G01 X-7.8920
G01 X-8.9723 Y64.4847
G01 X-11.4791
G00 Z1.0000
G00 X-11.8664 Y66.2847
G00 Z-1.5000
G01 Z-3.0000 F600
G01 X-14.8698 F1200
G00 Z1.0000
G00 X-14.9070 Y64.4847
G00 Z-1.5000
G01 Z-3.0000 F600
G01 X-14.3019 Y64.4960 F1200
G03 X-16.9847 Y61.9545 I1.2575 J-4.0140
G03 X-17.4584 Y59.7906 I6.2154 J-2.4943
G01 X-17.4979 Y59.0846
G01 X-17.4984 Y58.9846
G03 X-16.5257 Y58.0295 I0.9990 J0.0445
G01 X-9.8940 Y58.0291
G03 X-8.9085 Y58.8592 I0.0000 J1.0000
G03 X-9.5966 Y62.3503 I-6.7712 J0.4789
G03 X-14.3019 Y64.4960 I-3.5944 J-1.6500
G01 X-14.9070 Y64.4847
G00 Z1.0000
G00 X-14.8698 Y66.2847
G00 Z-1.5000
G01 Z-3.0000 F600
G01 X-15.6856 Y66.2007 F1200
G02 X-13.5790 Y66.6254 I1.9185 J-4.0794
G01 X-13.2684 Y66.6281
G02 X-8.1697 Y63.6841 I0.1636 J-5.6038
G01 X-7.9393 Y63.2602
G01 X-7.7214 Y62.7964
G02 X-6.6758 Y57.8041 I-13.3338 J-5.3984
G02 X-6.6436 Y56.7357 I-8.7772 J-0.7992
G03 X-16.3842 Y56.7141 I-3.5698 J-585.6475
G03 X-17.4141 Y55.7891 I-0.0266 J-1.0062
G01 X-17.4169 Y55.6892
G03 X-17.2698 Y54.4381 I10.2150 J0.5668
G03 X-15.3520 Y50.8734 I5.4493 J0.6335
G03 X-14.3109 Y50.2715 I2.5381 J3.1888
G03 X-10.0001 Y51.7007 I1.3458 J3.1568
G03 X-9.5291 Y52.6519 I-4.5155 J2.8277
G02 X-7.1167 Y52.1820 I-7.6493 J-45.7049
G02 X-7.8094 Y50.7438 I-8.4707 J3.1939
G02 X-12.5833 Y47.9491 I-4.7774 J2.6861
G02 X-13.5900 Y47.9533 I-0.4502 J12.9308
G02 X-17.3368 Y49.4467 I0.0942 J5.6830
G02 X-18.4572 Y50.8626 I5.1904 J5.2585
G02 X-19.8559 Y55.6572 I9.2376 J5.2962
G02 X-19.9007 Y57.1192 I28.3891 J1.6019
G01 X-19.9011 Y57.3700
G01 X-19.8993 Y57.6170
G01 X-19.8954 Y57.8579
G02 X-18.7102 Y63.0698 I12.4106 J-0.0815
G02 X-18.0907 Y64.1047 I7.3622 J-3.7040
G02 X-15.7547 Y66.1694 I4.9489 J-3.2456
G01 X-15.6856 Y66.2007
G01 X-14.8698 Y66.2847
G00 Z1.0000


(Nr. 19: Ausschnitt 36)
G00 X10.2968 Y49.3551 Z1.0000
G00 Z0.5000
G01 Z-1.0000 F600
G01 X13.6963 F1200
G01 X14.0875 Y51.1551
G01 X9.9437
G01 X9.5920 Y52.9551
G01 X14.4770
G01 X14.8656 Y54.7551
G01 X9.2409
G01 X8.8903 Y56.5551
G01 X10.9362
G01 X10.6116 Y58.3551
G01 X8.5396
G01 X8.1894 Y60.1551
G01 X10.2895
G01 X9.9699 Y61.9551
G01 X7.8397
G01 X7.4899 Y63.7551
G01 X9.6507
G01 X9.3324 Y65.5551
G01 X7.1403
G01 X6.7915 Y67.3551
G01 X9.0140
G01 X8.6956 Y69.1551
G01 X6.4427
G01 X6.0943 Y70.9551
G01 X8.3762
G01 X8.0559 Y72.7551
G01 X5.7473
G00 Z1.0000
G00 X13.4549 Y54.7551
G00 Z0.5000
G01 Z-1.0000 F600
G01 Y56.5551 F1200
G01 X15.2539
G01 X15.6417 Y58.3551
G01 X13.8466
G01 X14.2358 Y60.1551
G01 X16.0289
G01 X16.4161 Y61.9551
G01 X14.6250
G01 X15.0133 Y63.7551
G01 X16.8019
G01 X17.1875 Y65.5551
G01 X15.4011
G01 X15.7889 Y67.3551
G01 X17.5693
G01 X16.1767 Y69.1551
G01 X21.5905
G01 X21.9556 Y67.3551
G01 X20.0937
G01 X20.4683 Y65.5551
G01 X22.3208
G01 X22.6859 Y63.7551
G01 X20.8504
G01 X21.2349 Y61.9551
G01 X23.0519
G01 X23.4178 Y60.1551
G01 X21.6211
G01 X22.0088 Y58.3551
G01 X23.7848
G01 X24.1527 Y56.5551
G01 X22.3974
G01 X22.7861 Y54.7551
G01 X28.3790
G01 X28.0254 Y52.9551
G01 X23.1748
G01 X23.5634 Y51.1551
G01 X27.6717
G01 X27.3180 Y49.3551
G01 X23.9521
G00 Z1.0000
G00 X26.7298 Y54.7551
G00 Z0.5000
G01 Z-1.0000 F600
G01 Y56.5551 F1200
G01 X28.7327
G01 X29.0853 Y58.3551
G01 X27.0698
G01 X27.4040 Y60.1551
G01 X29.4377
G01 X29.7901 Y61.9551
G01 X27.7358
G01 X28.0660 Y63.7551
G01 X30.1424
G01 X30.4948 Y65.5551
G01 X28.3943
G01 X28.7215 Y67.3551
G01 X30.8472
G01 X31.1982 Y69.1551
G01 X29.0477
G01 X29.3712 Y70.9551
G01 X31.5491
G01 X31.9001 Y72.7551
G01 X29.6919
G00 Z1.0000
G00 X21.2254 Y69.1551
G00 Z0.5000
G01 Z-1.0000 F600
G01 Y70.9551 F1200
G01 X16.5628
G01 X16.9487 Y72.7551
G01 X20.8602
G00 Z1.0000
G00 Z0.5000
G01 Z-1.0000 F600
G01 X21.0563 Y72.7949 F1200
G03 X24.4600 Y56.0575 I3053.0647 J612.1643
G03 X26.4500 Y56.1736 I0.9865 J0.2028
G03 X29.6584 Y73.7227 I-1466.0712 J277.1034
G02 X32.2922 Y73.7221 I1.3036 J-61.8765
G02 X27.3294 Y48.3795 I-12196.1249 J2375.1750
G01 X23.9533 Y48.4018
G02 X19.9457 Y67.0764 I2161.6263 J473.6631
G01 X19.8511 Y67.5489
G03 X17.8354 Y67.6910 I-1.0113 J0.0217
G02 X13.6859 Y48.3818 I-2915.4835 J616.4295
G02 X10.2825 Y48.3912 I-1.4732 J82.4164
G02 X5.3669 Y73.7331 I5320.9262 J1045.2573
G02 X8.0703 Y73.7310 I1.2117 J-177.8795
G01 X8.0890 Y73.7093
G03 X11.1553 Y56.4681 I3511.0537 J615.5543
G01 X11.2087 Y56.1925
G03 X13.1637 Y56.1676 I0.9802 J0.1995
G02 X16.9624 Y73.7261 I19932.7697 J-4303.2178
G02 X20.8658 Y73.7337 I2.5463 J-305.4739
G01 X21.0563 Y72.7949
G01 X20.8602 Y72.7551
G00 Z1.0000
G00 X13.6963 Y49.3551
G00 Z-0.5000
G01 Z-2.0000 F600
G01 X10.2968 F1200
G01 X9.9437 Y51.1551
G01 X14.0875
G01 X14.4770 Y52.9551
G01 X9.5920
G01 X9.2409 Y54.7551
G01 X14.8656
G01 X10.9362
G01 Y56.5551
G01 X8.8903
G01 X8.5396 Y58.3551
G01 X10.6116
G01 X10.2895 Y60.1551
G01 X8.1894
G01 X7.8397 Y61.9551
G01 X9.9699
G01 X9.6507 Y63.7551
G01 X7.4899
G01 X7.1403 Y65.5551
G01 X9.3324
G01 X9.0140 Y67.3551
G01 X6.7915
G01 X6.4427 Y69.1551
G01 X8.6956
G01 X8.3762 Y70.9551
G01 X6.0943
G01 X5.7473 Y72.7551
G01 X8.0559
G00 Z1.0000
G00 X13.4549 Y54.7551
G00 Z-0.5000
G01 Z-2.0000 F600
G01 Y56.5551 F1200
G01 X15.2539
G01 X15.6417 Y58.3551
G01 X13.8466
G01 X14.2358 Y60.1551
G01 X16.0289
G01 X16.4161 Y61.9551
G01 X14.6250
G01 X15.0133 Y63.7551
G01 X16.8019
G01 X17.1875 Y65.5551
G01 X15.4011
G01 X15.7889 Y67.3551
G01 X17.5693
G01 X16.1767 Y69.1551
G01 X21.5905
G01 X21.9556 Y67.3551
G01 X20.0937
G01 X20.4683 Y65.5551
G01 X22.3208
G01 X22.6859 Y63.7551
G01 X20.8504
G01 X21.2349 Y61.9551
G01 X23.0519
G01 X23.4178 Y60.1551
G01 X21.6211
G01 X22.0088 Y58.3551
G01 X23.7848
G01 X24.1527 Y56.5551
G01 X22.3974
G01 X22.7861 Y54.7551
G01 X28.3790
G01 X28.0254 Y52.9551
G01 X23.1748
G01 X23.5634 Y51.1551
G01 X27.6717
G01 X27.3180 Y49.3551
G01 X23.9521
G00 Z1.0000
G00 X26.7298 Y54.7551
G00 Z-0.5000
G01 Z-2.0000 F600
G01 Y56.5551 F1200
G01 X28.7327
G01 X29.0853 Y58.3551
G01 X27.0698
G01 X27.4040 Y60.1551
G01 X29.4377
G01 X29.7901 Y61.9551
G01 X27.7358
G01 X28.0660 Y63.7551
G01 X30.1424
G01 X30.4948 Y65.5551
G01 X28.3943
G01 X28.7215 Y67.3551
G01 X30.8472
G01 X31.1982 Y69.1551
G01 X29.0477
G01 X29.3712 Y70.9551
G01 X31.5491
G01 X31.9001 Y72.7551
G01 X29.6919
G00 Z1.0000
G00 X21.2254 Y69.1551
G00 Z-0.5000
G01 Z-2.0000 F600
G01 Y70.9551 F1200
G01 X16.5628
G01 X16.9487 Y72.7551
G01 X20.8602
G00 Z1.0000
G00 Z-0.5000
G01 Z-2.0000 F600
G01 X21.0563 Y72.7949 F1200
G03 X24.4600 Y56.0575 I3053.0647 J612.1643
G03 X26.4500 Y56.1736 I0.9865 J0.2028
G03 X29.6584 Y73.7227 I-1466.0712 J277.1034
G02 X32.2922 Y73.7221 I1.3036 J-61.8765
G02 X27.3294 Y48.3795 I-12196.1249 J2375.1750
G01 X23.9533 Y48.4018
G02 X19.9457 Y67.0764 I2161.6263 J473.6631
G01 X19.8511 Y67.5489
G03 X17.8354 Y67.6910 I-1.0113 J0.0217
G02 X13.6859 Y48.3818 I-2915.4835 J616.4295
G02 X10.2825 Y48.3912 I-1.4732 J82.4164
G02 X5.3669 Y73.7331 I5320.9262 J1045.2573
G02 X8.0703 Y73.7310 I1.2117 J-177.8795
G01 X8.0890 Y73.7093
G03 X11.1553 Y56.4681 I3511.0537 J615.5543
G01 X11.2087 Y56.1925
G03 X13.1637 Y56.1676 I0.9802 J0.1995
G02 X16.9624 Y73.7261 I19932.7697 J-4303.2178
G02 X20.8658 Y73.7337 I2.5463 J-305.4739
G01 X21.0563 Y72.7949
G01 X20.8602 Y72.7551
G00 Z1.0000
G00 X13.6963 Y49.3551
G00 Z-1.5000
G01 Z-3.0000 F600
G01 X10.2968 F1200
G01 X9.9437 Y51.1551
G01 X14.0875
G01 X14.4770 Y52.9551
G01 X9.5920
G01 X9.2409 Y54.7551
G01 X14.8656
G01 X10.9362
G01 Y56.5551
G01 X8.8903
G01 X8.5396 Y58.3551
G01 X10.6116
G01 X10.2895 Y60.1551
G01 X8.1894
G01 X7.8397 Y61.9551
G01 X9.9699
G01 X9.6507 Y63.7551
G01 X7.4899
G01 X7.1403 Y65.5551
G01 X9.3324
G01 X9.0140 Y67.3551
G01 X6.7915
G01 X6.4427 Y69.1551
G01 X8.6956
G01 X8.3762 Y70.9551
G01 X6.0943
G01 X5.7473 Y72.7551
G01 X8.0559
G00 Z1.0000
G00 X13.4549 Y54.7551
G00 Z-1.5000
G01 Z-3.0000 F600
G01 Y56.5551 F1200
G01 X15.2539
G01 X15.6417 Y58.3551
G01 X13.8466
G01 X14.2358 Y60.1551
G01 X16.0289
G01 X16.4161 Y61.9551
G01 X14.6250
G01 X15.0133 Y63.7551
G01 X16.8019
G01 X17.1875 Y65.5551
G01 X15.4011
G01 X15.7889 Y67.3551
G01 X17.5693
G01 X16.1767 Y69.1551
G01 X21.5905
G01 X21.9556 Y67.3551
G01 X20.0937
G01 X20.4683 Y65.5551
G01 X22.3208
G01 X22.6859 Y63.7551
G01 X20.8504
G01 X21.2349 Y61.9551
G01 X23.0519
G01 X23.4178 Y60.1551
G01 X21.6211
G01 X22.0088 Y58.3551
G01 X23.7848
G01 X24.1527 Y56.5551
G01 X22.3974
G01 X22.7861 Y54.7551
G01 X28.3790
G01 X28.0254 Y52.9551
G01 X23.1748
G01 X23.5634 Y51.1551
G01 X27.6717
G01 X27.3180 Y49.3551
G01 X23.9521
G00 Z1.0000
G00 X26.7298 Y54.7551
G00 Z-1.5000
G01 Z-3.0000 F600
G01 Y56.5551 F1200
G01 X28.7327
G01 X29.0853 Y58.3551
G01 X27.0698
G01 X27.4040 Y60.1551
G01 X29.4377
G01 X29.7901 Y61.9551
G01 X27.7358
G01 X28.0660 Y63.7551
G01 X30.1424
G01 X30.4948 Y65.5551
G01 X28.3943
G01 X28.7215 Y67.3551
G01 X30.8472
G01 X31.1982 Y69.1551
G01 X29.0477
G01 X29.3712 Y70.9551
G01 X31.5491
G01 X31.9001 Y72.7551
G01 X29.6919
G00 Z1.0000
G00 X21.2254 Y69.1551
G00 Z-1.5000
G01 Z-3.0000 F600
G01 Y70.9551 F1200
G01 X16.5628
G01 X16.9487 Y72.7551
G01 X20.8602
G00 Z1.0000
G00 Z-1.5000
G01 Z-3.0000 F600
G01 X21.0563 Y72.7949 F1200
G03 X24.4600 Y56.0575 I3053.0647 J612.1643
G03 X26.4500 Y56.1736 I0.9865 J0.2028
G03 X29.6584 Y73.7227 I-1466.0712 J277.1034
G02 X32.2922 Y73.7221 I1.3036 J-61.8765
G02 X27.3294 Y48.3795 I-12196.1249 J2375.1750
G01 X23.9533 Y48.4018
G02 X19.9457 Y67.0764 I2161.6263 J473.6631
G01 X19.8511 Y67.5489
G03 X17.8354 Y67.6910 I-1.0113 J0.0217
G02 X13.6859 Y48.3818 I-2915.4835 J616.4295
G02 X10.2825 Y48.3912 I-1.4732 J82.4164
G02 X5.3669 Y73.7331 I5320.9262 J1045.2573
G02 X8.0703 Y73.7310 I1.2117 J-177.8795
G01 X8.0890 Y73.7093
G03 X11.1553 Y56.4681 I3511.0537 J615.5543
G01 X11.2087 Y56.1925
G03 X13.1637 Y56.1676 I0.9802 J0.1995
G02 X16.9624 Y73.7261 I19932.7697 J-4303.2178
G02 X20.8658 Y73.7337 I2.5463 J-305.4739
G01 X21.0563 Y72.7949
G01 X20.8602 Y72.7551
G00 Z1.0000


(Nr. 20: Ausschnitt 38)
G00 X36.5879 Y49.1874 Z1.0000
G00 Z0.5000
G01 Z-1.0000 F600
G01 X38.6211 F1200
G01 Y50.9874
G01 X36.5879
G01 Y52.7874
G01 X38.6211
G01 Y54.5874
G01 X36.5879
G01 Y56.3874
G01 X38.6211
G01 Y58.1874
G01 X36.5879
G01 Y59.9874
G01 X38.6211
G01 Y61.7874
G01 X36.5879
G01 Y63.5874
G01 X38.6211
G01 Y65.3874
G01 X36.5879
G00 Z1.0000
G00 Z0.5000
G01 Z-1.0000 F600
G01 X36.3879 F1200
G01 Y66.1993
G01 X38.8211
G01 Y48.3755
G01 X36.3879
G01 Y65.3874
G01 X36.5879
G00 Z1.0000
G00 Y49.1874
G00 Z-0.5000
G01 Z-2.0000 F600
G01 X38.6211 F1200
G01 Y50.9874
G01 X36.5879
G01 Y52.7874
G01 X38.6211
G01 Y54.5874
G01 X36.5879
G01 Y56.3874
G01 X38.6211
G01 Y58.1874
G01 X36.5879
G01 Y59.9874
G01 X38.6211
G01 Y61.7874
G01 X36.5879
G01 Y63.5874
G01 X38.6211
G01 Y65.3874
G01 X36.5879
G00 Z1.0000
G00 Z-0.5000
G01 Z-2.0000 F600
G01 X36.3879 F1200
G01 Y66.1993
G01 X38.8211
G01 Y48.3755
G01 X36.3879
G01 Y65.3874
G01 X36.5879
G00 Z1.0000
G00 Y49.1874
G00 Z-1.5000
G01 Z-3.0000 F600
G01 X38.6211 F1200
G01 Y50.9874
G01 X36.5879
G01 Y52.7874
G01 X38.6211
G01 Y54.5874
G01 X36.5879
G01 Y56.3874
G01 X38.6211
G01 Y58.1874
G01 X36.5879
G01 Y59.9874
G01 X38.6211
G01 Y61.7874
G01 X36.5879
G01 Y63.5874
G01 X38.6211
G01 Y65.3874
G01 X36.5879
G00 Z1.0000
G00 Z-1.5000
G01 Z-3.0000 F600
G01 X36.3879 F1200
G01 Y66.1993
G01 X38.8211
G01 Y48.3755
G01 X36.3879
G01 Y65.3874
G01 X36.5879
G00 Z1.0000


(Nr. 21: Ausschnitt 37)
G00 X36.5879 Y71.3028 Z1.0000
G00 Z0.5000
G01 Z-1.0000 F600
G01 X38.6211 F1200
G01 Y73.1028
G01 X36.5879
G00 Z1.0000
G00 Z0.5000
G01 Z-1.0000 F600
G01 X36.3879 F1200
G01 Y73.6728
G01 X38.8211
G01 Y70.7327
G01 X36.3879
G01 Y73.1028
G01 X36.5879
G00 Z1.0000
G00 Y71.3028
G00 Z-0.5000
G01 Z-2.0000 F600
G01 X38.6211 F1200
G01 Y73.1028
G01 X36.5879
G00 Z1.0000
G00 Z-0.5000
G01 Z-2.0000 F600
G01 X36.3879 F1200
G01 Y73.6728
G01 X38.8211
G01 Y70.7327
G01 X36.3879
G01 Y73.1028
G01 X36.5879
G00 Z1.0000
G00 Y71.3028
G00 Z-1.5000
G01 Z-3.0000 F600
G01 X38.6211 F1200
G01 Y73.1028
G01 X36.5879
G00 Z1.0000
G00 Z-1.5000
G01 Z-3.0000 F600
G01 X36.3879 F1200
G01 Y73.6728
G01 X38.8211
G01 Y70.7327
G01 X36.3879
G01 Y73.1028
G01 X36.5879
G00 Z1.0000


(Nr. 22: Ausschnitt 39)
G00 X45.4542 Y50.2558 Z1.0000
G00 Z0.5000
G01 Z-1.0000 F600
G01 X47.6774 F1200
G01 Y52.0558
G01 X45.4542
G01 Y53.8558
G01 X47.6774
G01 Y55.6558
G01 X45.4542
G01 Y57.4558
G01 X47.6774
G01 X47.7145 Y59.2558
G01 X45.4542
G01 Y61.0558
G01 X56.9871
G01 X48.0424
G01 Y62.8558
G01 X45.4542
G01 Y64.6558
G01 X47.6774
G01 Y66.4558
G01 X45.4542
G01 Y68.2558
G01 X47.6774
G01 X47.6809 Y70.0558
G01 X45.4542
G01 Y71.8558
G01 X58.4437
G00 Z1.0000
G00 Z0.5000
G01 Z-1.0000 F600
G01 X58.6437 F1200
G01 Y70.9860
G01 X48.8974
G03 X47.8774 Y69.9860 I-0.0197 J-1.0001
G01 Y63.7359
G01 X47.8799 Y63.6452
G03 X48.8774 Y62.7159 I0.9975 J0.0707
G01 X57.1871
G01 Y59.9658
G01 X48.8974
G03 X47.8774 Y58.9658 I-0.0197 J-1.0001
G01 Y48.3755
G01 X45.2542
G01 Y73.7362
G01 X58.6437
G01 Y71.8558
G01 X58.4437
G00 Z1.0000
G00 X47.6774 Y50.2558
G00 Z-0.5000
G01 Z-2.0000 F600
G01 X45.4542 F1200
G01 Y52.0558
G01 X47.6774
G01 Y53.8558
G01 X45.4542
G01 Y55.6558
G01 X47.6774
G01 Y57.4558
G01 X45.4542
G01 Y59.2558
G01 X47.7145
G01 Y61.0558
G01 X45.4542
G01 X56.9871
G01 X48.0424
G01 Y62.8558
G01 X45.4542
G01 Y64.6558
G01 X47.6774
G01 Y66.4558
G01 X45.4542
G01 Y68.2558
G01 X47.6774
G01 X47.6809 Y70.0558
G01 X45.4542
G01 Y71.8558
G01 X58.4437
G00 Z1.0000
G00 Z-0.5000
G01 Z-2.0000 F600
G01 X58.6437 F1200
G01 Y70.9860
G01 X48.8974
G03 X47.8774 Y69.9860 I-0.0197 J-1.0001
G01 Y63.7359
G01 X47.8799 Y63.6452
G03 X48.8774 Y62.7159 I0.9975 J0.0707
G01 X57.1871
G01 Y59.9658
G01 X48.8974
G03 X47.8774 Y58.9658 I-0.0197 J-1.0001
G01 Y48.3755
G01 X45.2542
G01 Y73.7362
G01 X58.6437
G01 Y71.8558
G01 X58.4437
G00 Z1.0000
G00 X47.6774 Y50.2558
G00 Z-1.5000
G01 Z-3.0000 F600
G01 X45.4542 F1200
G01 Y52.0558
G01 X47.6774
G01 Y53.8558
G01 X45.4542
G01 Y55.6558
G01 X47.6774
G01 Y57.4558
G01 X45.4542
G01 Y59.2558
G01 X47.7145
G01 Y61.0558
G01 X45.4542
G01 X56.9871
G01 X48.0424
G01 Y62.8558
G01 X45.4542
G01 Y64.6558
G01 X47.6774
G01 Y66.4558
G01 X45.4542
G01 Y68.2558
G01 X47.6774
G01 X47.6809 Y70.0558
G01 X45.4542
G01 Y71.8558
G01 X58.4437
G00 Z1.0000
G00 Z-1.5000
G01 Z-3.0000 F600
G01 X58.6437 F1200
G01 Y70.9860
G01 X48.8974
G03 X47.8774 Y69.9860 I-0.0197 J-1.0001
G01 Y63.7359
G01 X47.8799 Y63.6452
G03 X48.8774 Y62.7159 I0.9975 J0.0707
G01 X57.1871
G01 Y59.9658
G01 X48.8974
G03 X47.8774 Y58.9658 I-0.0197 J-1.0001
G01 Y48.3755
G01 X45.2542
G01 Y73.7362
G01 X58.6437
G01 Y71.8558
G01 X58.4437
G00 Z1.0000


(Nr. 23: Ausschnitt 41)
G00 X64.3270 Y49.1874 Z1.0000
G00 Z0.5000
G01 Z-1.0000 F600
G01 X66.3602 F1200
G01 Y50.9874
G01 X64.3270
G01 Y52.7874
G01 X66.3602
G01 Y54.5874
G01 X64.3270
G01 Y56.3874
G01 X66.3602
G01 Y58.1874
G01 X64.3270
G01 Y59.9874
G01 X66.3602
G01 Y61.7874
G01 X64.3270
G01 Y63.5874
G01 X66.3602
G01 Y65.3874
G01 X64.3270
G00 Z1.0000
G00 Z0.5000
G01 Z-1.0000 F600
G01 X64.1270 F1200
G01 Y66.1993
G01 X66.5602
G01 Y48.3755
G01 X64.1270
G01 Y65.3874
G01 X64.3270
G00 Z1.0000
G00 Y49.1874
G00 Z-0.5000
G01 Z-2.0000 F600
G01 X66.3602 F1200
G01 Y50.9874
G01 X64.3270
G01 Y52.7874
G01 X66.3602
G01 Y54.5874
G01 X64.3270
G01 Y56.3874
G01 X66.3602
G01 Y58.1874
G01 X64.3270
G01 Y59.9874
G01 X66.3602
G01 Y61.7874
G01 X64.3270
G01 Y63.5874
G01 X66.3602
G01 Y65.3874
G01 X64.3270
G00 Z1.0000
G00 Z-0.5000
G01 Z-2.0000 F600
G01 X64.1270 F1200
G01 Y66.1993
G01 X66.5602
G01 Y48.3755
G01 X64.1270
G01 Y65.3874
G01 X64.3270
G00 Z1.0000
G00 Y49.1874
G00 Z-1.5000
G01 Z-3.0000 F600
G01 X66.3602 F1200
G01 Y50.9874
G01 X64.3270
G01 Y52.7874
G01 X66.3602
G01 Y54.5874
G01 X64.3270
G01 Y56.3874
G01 X66.3602
G01 Y58.1874
G01 X64.3270
G01 Y59.9874
G01 X66.3602
G01 Y61.7874
G01 X64.3270
G01 Y63.5874
G01 X66.3602
G01 Y65.3874
G01 X64.3270
G00 Z1.0000
G00 Z-1.5000
G01 Z-3.0000 F600
G01 X64.1270 F1200
G01 Y66.1993
G01 X66.5602
G01 Y48.3755
G01 X64.1270
G01 Y65.3874
G01 X64.3270
G00 Z1.0000


(Nr. 24: Ausschnitt 40)
G00 X64.3270 Y71.3028 Z1.0000
G00 Z0.5000
G01 Z-1.0000 F600
G01 X66.3602 F1200
G01 Y73.1028
G01 X64.3270
G00 Z1.0000
G00 Z0.5000
G01 Z-1.0000 F600
G01 X64.1270 F1200
G01 Y73.6728
G01 X66.5602
G01 Y70.7327
G01 X64.1270
G01 Y73.1028
G01 X64.3270
G00 Z1.0000
G00 Y71.3028
G00 Z-0.5000
G01 Z-2.0000 F600
G01 X66.3602 F1200
G01 Y73.1028
G01 X64.3270
G00 Z1.0000
G00 Z-0.5000
G01 Z-2.0000 F600
G01 X64.1270 F1200
G01 Y73.6728
G01 X66.5602
G01 Y70.7327
G01 X64.1270
G01 Y73.1028
G01 X64.3270
G00 Z1.0000
G00 Y71.3028
G00 Z-1.5000
G01 Z-3.0000 F600
G01 X66.3602 F1200
G01 Y73.1028
G01 X64.3270
G00 Z1.0000
G00 Z-1.5000
G01 Z-3.0000 F600
G01 X64.1270 F1200
G01 Y73.6728
G01 X66.5602
G01 Y70.7327
G01 X64.1270
G01 Y73.1028
G01 X64.3270
G00 Z1.0000


(Nr. 25: Ausschnitt 42)
G00 X-57.8325 Y-75.3371 Z1.0000
G00 Z0.5000
G01 Z-1.0000 F600
G01 X-60.0556 F1200
G01 Y-73.5371
G01 X-57.8325
G01 Y-71.7371
G01 X-60.0556
G01 Y-69.9371
G01 X-57.8325
G01 Y-68.1371
G01 X-60.0556
G01 Y-66.3371
G01 X-57.7954
G01 X-60.0556
G01 Y-64.5371
G01 X-48.5228
G01 X-57.4675
G01 Y-62.7371
G01 X-60.0556
G01 Y-60.9371
G01 X-57.8325
G01 Y-59.1371
G01 X-60.0556
G01 Y-57.3371
G01 X-57.8325
G01 X-57.8290 Y-55.5371
G01 X-60.0556
G01 Y-53.7371
G01 X-47.0661
G00 Z1.0000
G00 Z0.5000
G01 Z-1.0000 F600
G01 X-46.8661 F1200
G01 Y-54.6069
G01 X-56.6125
G03 X-57.6325 Y-55.6069 I-0.0197 J-1.0001
G01 Y-61.8571
G01 X-57.6300 Y-61.9478
G03 X-56.6325 Y-62.8771 I0.9975 J0.0707
G01 X-48.3228
G01 Y-65.6272
G01 X-56.6125
G03 X-57.6325 Y-66.6272 I-0.0197 J-1.0001
G01 Y-77.2175
G01 X-60.2556
G01 Y-51.8568
G01 X-46.8661
G01 Y-53.7371
G01 X-47.0661
G00 Z1.0000
G00 X-57.8325 Y-75.3371
G00 Z-0.5000
G01 Z-2.0000 F600
G01 X-60.0556 F1200
G01 Y-73.5371
G01 X-57.8325
G01 Y-71.7371
G01 X-60.0556
G01 Y-69.9371
G01 X-57.8325
G01 Y-68.1371
G01 X-60.0556
G01 Y-66.3371
G01 X-57.7954
G01 X-60.0556
G01 Y-64.5371
G01 X-48.5228
G01 X-57.4675
G01 Y-62.7371
G01 X-60.0556
G01 Y-60.9371
G01 X-57.8325
G01 Y-59.1371
G01 X-60.0556
G01 Y-57.3371
G01 X-57.8325
G01 X-57.8290 Y-55.5371
G01 X-60.0556
G01 Y-53.7371
G01 X-47.0661
G00 Z1.0000
G00 Z-0.5000
G01 Z-2.0000 F600
G01 X-46.8661 F1200
G01 Y-54.6069
G01 X-56.6125
G03 X-57.6325 Y-55.6069 I-0.0197 J-1.0001
G01 Y-61.8571
G01 X-57.6300 Y-61.9478
G03 X-56.6325 Y-62.8771 I0.9975 J0.0707
G01 X-48.3228
G01 Y-65.6272
G01 X-56.6125
G03 X-57.6325 Y-66.6272 I-0.0197 J-1.0001
G01 Y-77.2175
G01 X-60.2556
G01 Y-51.8568
G01 X-46.8661
G01 Y-53.7371
G01 X-47.0661
G00 Z1.0000
G00 X-57.8325 Y-75.3371
G00 Z-1.5000
G01 Z-3.0000 F600
G01 X-60.0556 F1200
G01 Y-73.5371
G01 X-57.8325
G01 Y-71.7371
G01 X-60.0556
G01 Y-69.9371
G01 X-57.8325
G01 Y-68.1371
G01 X-60.0556
G01 Y-66.3371
G01 X-57.7954
G01 X-60.0556
G01 Y-64.5371
G01 X-48.5228
G01 X-57.4675
G01 Y-62.7371
G01 X-60.0556
G01 Y-60.9371
G01 X-57.8325
G01 Y-59.1371
G01 X-60.0556
G01 Y-57.3371
G01 X-57.8325
G01 X-57.8290 Y-55.5371
G01 X-60.0556
G01 Y-53.7371
G01 X-47.0661
G00 Z1.0000
G00 Z-1.5000
G01 Z-3.0000 F600
G01 X-46.8661 F1200
G01 Y-54.6069
G01 X-56.6125
G03 X-57.6325 Y-55.6069 I-0.0197 J-1.0001
G01 Y-61.8571
G01 X-57.6300 Y-61.9478
G03 X-56.6325 Y-62.8771 I0.9975 J0.0707
G01 X-48.3228
G01 Y-65.6272
G01 X-56.6125
G03 X-57.6325 Y-66.6272 I-0.0197 J-1.0001
G01 Y-77.2175
G01 X-60.2556
G01 Y-51.8568
G01 X-46.8661
G01 Y-53.7371
G01 X-47.0661
G00 Z1.0000


(Nr. 26: Ausschnitt 43)
G00 X-41.2459 Y-75.2882 Z1.0000
G00 Z0.5000
G01 Z-1.0000 F600
G01 X-39.2117 F1200
G01 X-39.2092 Y-73.4882
G01 X-41.2459
G01 X-41.2460 Y-71.6882
G01 X-39.1967
G01 X-39.1680 Y-69.8882
G01 X-41.2460
G01 Y-68.0882
G01 X-39.1120
G01 X-38.9836 Y-66.2882
G01 X-41.2461
G01 Y-64.4882
G01 X-38.6338
G01 X-37.6904 Y-62.6882
G01 X-41.2462
G01 Y-60.8882
G01 X-39.4983
G00 Z1.0000
G00 X-36.9277
G00 Z0.5000
G01 Z-1.0000 F600
G01 X-33.7111 F1200
G00 Z1.0000
G00 Z0.5000
G01 Z-1.0000 F600
G01 X-33.5188 Y-60.9443 F1200
G02 X-33.8845 Y-62.1282 I-23.9581 J6.7519
G03 X-37.7017 Y-63.0089 I-1.3944 J-2.6688
G03 X-38.0728 Y-63.5961 I2.8622 J-2.2200
G03 X-38.8355 Y-66.8053 I8.1854 J-3.6404
G03 X-38.9861 Y-70.8639 I58.1430 J-4.1908
G03 X-39.0109 Y-73.9014 I239.4323 J-3.4720
G01 X-39.0126 Y-77.2175
G01 X-41.4458
G01 X-41.4463 Y-59.3936
G01 X-39.3187
G01 X-39.2965 Y-60.9514
G03 X-37.4136 Y-61.3620 I0.9984 J0.0561
G02 X-36.0085 Y-59.3773 I6.1055 J-2.8328
G02 X-35.4788 Y-59.0555 I1.1440 J-1.2860
G02 X-33.0820 Y-59.4090 I0.7768 J-3.0357
G02 X-33.5188 Y-60.9443 I-67.1723 J18.2823
G01 X-33.7111 Y-60.8882
G00 Z1.0000
G00 X-39.2117 Y-75.2882
G00 Z-0.5000
G01 Z-2.0000 F600
G01 X-41.2459 F1200
G01 Y-73.4882
G01 X-39.2092
G01 X-39.1967 Y-71.6882
G01 X-41.2460
G01 Y-69.8882
G01 X-39.1680
G01 X-39.1120 Y-68.0882
G01 X-41.2460
G01 X-41.2461 Y-66.2882
G01 X-38.9836
G01 X-38.6338 Y-64.4882
G01 X-41.2461
G01 X-41.2462 Y-62.6882
G01 X-37.6904
G01 X-39.4983 Y-60.8882
G01 X-41.2462
G00 Z1.0000
G00 X-36.9277
G00 Z-0.5000
G01 Z-2.0000 F600
G01 X-33.7111 F1200
G00 Z1.0000
G00 Z-0.5000
G01 Z-2.0000 F600
G01 X-33.5188 Y-60.9443 F1200
G02 X-33.8845 Y-62.1282 I-23.9581 J6.7519
G03 X-37.7017 Y-63.0089 I-1.3944 J-2.6688
G03 X-38.0728 Y-63.5961 I2.8622 J-2.2200
G03 X-38.8355 Y-66.8053 I8.1854 J-3.6404
G03 X-38.9861 Y-70.8639 I58.1430 J-4.1908
G03 X-39.0109 Y-73.9014 I239.4323 J-3.4720
G01 X-39.0126 Y-77.2175
G01 X-41.4458
G01 X-41.4463 Y-59.3936
G01 X-39.3187
G01 X-39.2965 Y-60.9514
G03 X-37.4136 Y-61.3620 I0.9984 J0.0561
G02 X-36.0085 Y-59.3773 I6.1055 J-2.8328
G02 X-35.4788 Y-59.0555 I1.1440 J-1.2860
G02 X-33.0820 Y-59.4090 I0.7768 J-3.0357
G02 X-33.5188 Y-60.9443 I-67.1723 J18.2823
G01 X-33.7111 Y-60.8882
G00 Z1.0000
G00 X-39.2117 Y-75.2882
G00 Z-1.5000
G01 Z-3.0000 F600
G01 X-41.2459 F1200
G01 Y-73.4882
G01 X-39.2092
G01 X-39.1967 Y-71.6882
G01 X-41.2460
G01 Y-69.8882
G01 X-39.1680
G01 X-39.1120 Y-68.0882
G01 X-41.2460
G01 X-41.2461 Y-66.2882
G01 X-38.9836
G01 X-38.6338 Y-64.4882
G01 X-41.2461
G01 X-41.2462 Y-62.6882
G01 X-37.6904
G01 X-39.4983 Y-60.8882
G01 X-41.2462
G00 Z1.0000
G00 X-36.9277
G00 Z-1.5000
G01 Z-3.0000 F600
G01 X-33.7111 F1200
G00 Z1.0000
G00 Z-1.5000
G01 Z-3.0000 F600
G01 X-33.5188 Y-60.9443 F1200
G02 X-33.8845 Y-62.1282 I-23.9581 J6.7519
G03 X-37.7017 Y-63.0089 I-1.3944 J-2.6688
G03 X-38.0728 Y-63.5961 I2.8622 J-2.2200
G03 X-38.8355 Y-66.8053 I8.1854 J-3.6404
G03 X-38.9861 Y-70.8639 I58.1430 J-4.1908
G03 X-39.0109 Y-73.9014 I239.4323 J-3.4720
G01 X-39.0126 Y-77.2175
G01 X-41.4458
G01 X-41.4463 Y-59.3936
G01 X-39.3187
G01 X-39.2965 Y-60.9514
G03 X-37.4136 Y-61.3620 I0.9984 J0.0561
G02 X-36.0085 Y-59.3773 I6.1055 J-2.8328
G02 X-35.4788 Y-59.0555 I1.1440 J-1.2860
G02 X-33.0820 Y-59.4090 I0.7768 J-3.0357
G02 X-33.5188 Y-60.9443 I-67.1723 J18.2823
G01 X-33.7111 Y-60.8882
G00 Z1.0000


(Nr. 27: Ausschnitt 45)
G00 X-25.1409 Y-77.3082 Z1.0000
G00 Z0.5000
G01 Z-1.0000 F600
G01 X-21.9542 F1200
G01 X-24.8950
G01 Y-75.5082
G01 X-28.1677
G01 X-29.2820 Y-73.7082
G01 X-27.0469
G01 X-27.8353 Y-71.9082
G01 X-29.8768
G01 X-30.1572 Y-70.1082
G01 X-28.1204
G01 Y-68.3082
G01 X-30.2139
G01 X-17.3637
G01 X-28.2106
G01 Y-66.5082
G01 X-30.1353
G01 X-29.8101 Y-64.7082
G01 X-28.0297
G01 X-27.3592 Y-62.9082
G01 X-29.1863
G01 X-28.0585 Y-61.1082
G01 X-25.4200
G00 Z1.0000
G00 X-22.0622 Y-77.3082
G00 Z0.5000
G01 Z-1.0000 F600
G01 Y-75.5082 F1200
G01 X-19.0297
G01 X-17.9679 Y-73.7082
G01 X-20.1740
G00 Z1.0000
G00 X-19.2070 Y-68.3082
G00 Z0.5000
G01 Z-1.0000 F600
G01 Y-66.5082 F1200
G01 X-17.4853
G01 X-17.8140 Y-64.7082
G01 X-19.3782
G01 X-20.0639 Y-62.9082
G01 X-18.4049
G01 X-19.4852 Y-61.1082
G01 X-21.9920
G00 Z1.0000
G00 X-22.3793 Y-59.3082
G00 Z0.5000
G01 Z-1.0000 F600
G01 X-25.3826 F1200
G00 Z1.0000
G00 X-25.4200 Y-61.1082
G00 Z0.5000
G01 Z-1.0000 F600
G01 X-24.8149 Y-61.0969 F1200
G03 X-27.4977 Y-63.6384 I1.2575 J-4.0140
G03 X-27.9714 Y-65.8020 I6.2189 J-2.4954
G01 X-28.0109 Y-66.5086
G01 X-28.0114 Y-66.6085
G03 X-27.0385 Y-67.5635 I0.9990 J0.0447
G01 X-20.4070 Y-67.5638
G03 X-19.4215 Y-66.7338 I0.0000 J1.0000
G03 X-20.1096 Y-63.2427 I-6.7711 J0.4789
G03 X-24.8149 Y-61.0969 I-3.5944 J-1.6500
G01 X-25.4200 Y-61.1082
G00 Z1.0000
G00 X-25.3826 Y-59.3082
G00 Z0.5000
G01 Z-1.0000 F600
G01 X-26.2005 Y-59.3931 F1200
